!!!!SEGMENT: pl-wtm--r-1544--001-009_stefani-jozef--msza-no-9-dona-nobis.krn
!!!cenid: 18xx:1801
!!!COM: Stefani, Józef
!!!COM-rismID: pe30024097
!!!CDT: 1800/04/16-1876/03/19
!!!CNT: Polish
!!!OPR: Msza No 9
!!!OTL: Dona nobis
!!!OMV: 009
!!!PDT: 1846
!!!AGN: Sacred; Mass
!!!YEC: Copyright 2022 Narodowy Instytut Fryderyka Chopina (https://polishscores.org)
!!!YEM: License CC-BY-4.0 (https://creativecommons.org/licenses/by/4.0)
!!!SMS-siglum: PL-Wtm
!!!SMS-shelfmark: R 1544
!!!SMS-shelfwork: 001-009 M
!!!SMS-variant: Partytura pl-wtm--r-1544:0041
!!!SMS-altvar: Partytura pl-wtm--r-1544:0040
!!!NIFC-rismSourceID: 1001120493
!!!NIFC-rismChildID: 1001120493
!!!NIFC-islandoraID: pl-wtm:26509
!!!URL-pdf-islandora: https://repozytorium.nifc.pl/islandora/object/pl-wtm%3A26509/datastream/PDF/view
!!!URL-scan: https://polish.musicsources.pl/pl/lokalizacje/galeria/rekopisy/6345 @EN{Scan on Polish Music Sources Website} @PL{Skany w portalu Dziedzictwo Muzyki Polskiej w otwartym dostępie}
!!!IIIF:
!!!ONB-nifc: UWAGA: części Mszy: 1. Kyrie, 2. Gloria, 3. Graduale, 4. Credo, 5. Offertorium, 6. Sanctus, 7. Benedictus, 8. Agnus Dei, 9. Dona nobis
!!!AIN: 1 cbass 1 cello 1 clars 1 cor 2 empty 1 fagot 1 flt 1 oboe 2 soprn 1 tenor 1 timpa 1 tromp 1 viola 1 violn
!!!key:
**kern	**dynam	**kern	**dynam	**kern	**text	**dynam	**kern	**dynam	**kern	**text	**dynam	**kern	**text	**dynam	**kern	**dynam	**kern	**dynam	**kern	**dynam	**kern	**dynam	**kern	**dynam	**kern	**dynam	**kern	**dynam	**kern	**dynam	**kern	**dynam
*part15	*	*part14	*	*part13	*	*	*part12	*	*part11	*	*	*part10	*	*	*part9	*	*part8	*	*part7	*	*part6	*	*part5	*	*part4	*	*part3	*	*part2	*	*part1	*
*staff15	*	*staff14	*	*staff13	*	*	*staff12	*	*staff11	*	*	*staff10	*	*	*staff9	*	*staff8	*	*staff7	*	*staff6	*	*staff5	*	*staff4	*	*staff3	*	*staff2	*	*staff1	*
*Itimpa	*	*Icello&Icbass	*	*Iempty	*	*	*Itenor	*	*Isoprn	*	*	*Isoprn	*	*	*Iviola	*	*Iempty	*	*Ivioln	*	*Itromp	*	*Ifagot	*	*Icor	*	*Iclars	*	*Ioboe	*	*Iflt	*
*I"Tympani C.G.	*	*I"Violoncelli et CtBassi	*	*I"Baſso	*	*	*I"Tenore	*	*I"Soprano 2o.	*	*	*I"Soprano 1o.	*	*	*I"Viole	*	*	*	*I"Violini	*	*I"Trombe	*	*I"Fagotti	*	*I"Corni in C	*	*I"Clarinetti	*	*I"Oboe	*	*I"Flauto	*
*I'timp	*	*I'vc et b	*	*I'B	*	*	*I'T	*	*I'S 2	*	*	*I'S 1	*	*	*I'vle	*	*I'vn	*	*I'vn	*	*I'tr	*	*I'fg	*	*I'cor	*	*I'cl	*	*I'ob	*	*I'fl	*
*stria1	*	*	*	*	*	*	*	*	*	*	*	*	*	*	*	*	*	*	*	*	*	*	*	*	*	*	*	*	*	*	*	*
*clefF4	*	*clefF4	*	*clefF4	*	*	*clefC4	*	*clefG2	*	*	*clefG2	*	*	*clefC3	*	*clefG2	*	*clefG2	*	*clefG2	*	*clefF4	*	*clefG2	*	*clefG2	*	*clefG2	*	*clefG2	*
*k[]	*	*k[]	*	*k[]	*	*	*k[]	*	*k[]	*	*	*k[]	*	*	*k[]	*	*k[]	*	*k[]	*	*k[]	*	*k[]	*	*k[]	*	*k[]	*	*k[]	*	*k[]	*
*C:	*	*C:	*	*C:	*	*	*C:	*	*C:	*	*	*C:	*	*	*C:	*	*C:	*	*C:	*	*C:	*	*C:	*	*C:	*	*C:	*	*C:	*	*C:	*
*M3/4	*	*M3/4	*	*M3/4	*	*	*M3/4	*	*M3/4	*	*	*M3/4	*	*	*M3/4	*	*M3/4	*	*M3/4	*	*M3/4	*	*M3/4	*	*M3/4	*	*M3/4	*	*M3/4	*	*M3/4	*
=1	=1	=1	=1	=1	=1	=1	=1	=1	=1	=1	=1	=1	=1	=1	=1	=1	=1	=1	=1	=1	=1	=1	=1	=1	=1	=1	=1	=1	=1	=1	=1	=1
*	*	*^	*	*	*	*	*	*	*	*	*	*	*	*	*	*	*	*	*	*	*	*	*	*	*	*	*	*	*	*	*	*
!!LO:TX:t=P:problem:all\right:global
!LO:TX:a:t=Partia zapisana zgodnie z założeniem c/ G\	!	!	!	!	!	!	!	!	!	!	!	!	!	!	!	!	!	!	!	!	!	!	!	!	!	!	!	!	!	!	!	!LO:TX:a:t=All(egr)o mod(era)to	!
!LO:SIC:o=8Re\	!	!	!	!	!	!	!	!	!	!	!	!	!	!	!	!	!	!	!	!	!	!	!	!	!	!	!	!	!	!	!	!LO:TX:a:i:t=Dona\n nobis	!
8G\	.	8G/	8G\	.	2.r	.	.	2.r	.	2.r	.	.	2.r	.	.	8G/L	.	8B/L	.	8g/L	.	8G/ 8g	.	8GG\ 8G	.	8G/ 8g	.	8B/ 8g	.	8b/	.	8gg\	.
8r	.	(16F#X/LL	8r	.	.	.	.	.	.	.	.	.	.	.	.	(16F#X/L	.	(16f#X/L	.	(16f#X/L	<	8r	.	8r	.	8r	.	8r	.	8r	.	8r	.
.	.	16G/JJ	.	.	.	.	.	.	.	.	.	.	.	.	.	16G/JJ	.	16g/JJ	.	16g/JJ	.	.	.	.	.	.	.	.	.	.	.	.	.
!	!	!	!	!	!	!	!	!	!	!	!	!	!	!	!	!	!	!LO:TX:a:t=unis	!	!	!	!	!	!	!	!	!	!	!	!	!	!	!
4r	.	16A-X/LL	4r	.	.	.	.	.	.	.	.	.	.	.	.	16A-X/LL	.	16a-X/LLyy	<	16a-X/LL	.	4r	.	4r	.	4r	.	4r	.	4r	.	4r	.
.	.	16G/	.	.	.	.	.	.	.	.	.	.	.	.	.	16G/	.	16g/yy	.	16g/	.	.	.	.	.	.	.	.	.	.	.	.	.
.	.	16An/	.	.	.	.	.	.	.	.	.	.	.	.	.	16An/	.	16an/yy	.	16an/	.	.	.	.	.	.	.	.	.	.	.	.	.
.	.	16G/JJ	.	.	.	.	.	.	.	.	.	.	.	.	.	16G/JJ	.	16g/JJyy	.	16g/JJ	.	.	.	.	.	.	.	.	.	.	.	.	.
4r	.	16B/LL	4r	.	.	.	.	.	.	.	.	.	.	.	.	16B/LL	.	16b/LLyy	.	16b/LL	.	4r	.	4r	.	4r	.	4r	.	4r	.	4r	.
.	.	16G/	.	.	.	.	.	.	.	.	.	.	.	.	.	16G/	.	16g/yy	.	16g/	.	.	.	.	.	.	.	.	.	.	.	.	.
.	.	16d/	.	.	.	.	.	.	.	.	.	.	.	.	.	16d/	.	16dd/yy	.	16dd/	.	.	.	.	.	.	.	.	.	.	.	.	.
.	.	16B/JJ)	.	.	.	.	.	.	.	.	.	.	.	.	.	16B/JJ)	.	16b/JJ)yy	.	16b/JJ)	.	.	.	.	.	.	.	.	.	.	.	.	.
=2	=2	=2	=2	=2	=2	=2	=2	=2	=2	=2	=2	=2	=2	=2	=2	=2	=2	=2	=2	=2	=2	=2	=2	=2	=2	=2	=2	=2	=2	=2	=2	=2	=2
2.r	.	(16f/LL	2.r	.	2.r	.	.	2.r	.	2.r	.	.	2.r	.	.	(16f\LL	.	(16ff\LLyy	.	(16ff\LL	.	2.r	.	2.r	.	2.r	.	2.r	.	2.r	.	2.r	.
.	.	16e/	.	.	.	.	.	.	.	.	.	.	.	.	.	16e\	.	16ee\yy	.	16ee\	.	.	.	.	.	.	.	.	.	.	.	.	.
.	.	16d/	.	.	.	.	.	.	.	.	.	.	.	.	.	16d\	.	16dd\yy	.	16dd\	.	.	.	.	.	.	.	.	.	.	.	.	.
.	.	16c/JJ	.	.	.	.	.	.	.	.	.	.	.	.	.	16c\JJ	.	16cc\JJyy	.	16cc\JJ	.	.	.	.	.	.	.	.	.	.	.	.	.
.	.	16B/LL	.	.	.	.	.	.	.	.	.	.	.	.	.	16B\LL	.	16b\LLyy	.	16b\LL	[	.	.	.	.	.	.	.	.	.	.	.	.
.	.	16c/	.	.	.	.	.	.	.	.	.	.	.	.	.	16c\	.	16cc\yy	.	16cc\	.	.	.	.	.	.	.	.	.	.	.	.	.
.	.	16d/	.	.	.	.	.	.	.	.	.	.	.	.	.	16d\	.	16dd\yy	.	16dd\	.	.	.	.	.	.	.	.	.	.	.	.	.
.	.	16e/JJ	.	.	.	.	.	.	.	.	.	.	.	.	.	16e\JJ	.	16ee\JJyy	.	16ee\JJ	.	.	.	.	.	.	.	.	.	.	.	.	.
.	.	16f/LL	.	.	.	.	.	.	.	.	.	.	.	.	.	16f\LL	.	16ff\LLyy	.	16ff\LL	.	.	.	.	.	.	.	.	.	.	.	.	.
.	.	16e/	.	.	.	.	.	.	.	.	.	.	.	.	.	16e\	.	16ee\yy	.	16ee\	.	.	.	.	.	.	.	.	.	.	.	.	.
.	.	16f/	.	.	.	.	.	.	.	.	.	.	.	.	.	16f\	.	16ff\yy	.	16ff\	.	.	.	.	.	.	.	.	.	.	.	.	.
.	.	16f#X/JJ)	.	.	.	.	.	.	.	.	.	.	.	.	.	16f#X\JJ	.	16ff#X\JJyy	[[	16ff#X\JJ	.	.	.	.	.	.	.	.	.	.	.	.	.
=3	=3	=3	=3	=3	=3	=3	=3	=3	=3	=3	=3	=3	=3	=3	=3	=3	=3	=3	=3	=3	=3	=3	=3	=3	=3	=3	=3	=3	=3	=3	=3	=3	=3
*	*	*	*	*	*	*	*	*	*	*	*	*	*	*	*	*	*	*	*	*	*	*^	*	*	*	*	*	*^	*	*	*	*	*
!	!LO:DY:a	!	!	!	!	!	!	!	!	!	!	!	!	!	!	!	!	!	!	!	!	!	!	!	!	!	!	!	!	!	!	!	!	!	!
8r	f	8g/	8r	.	2.r	.	.	2.r	.	2.r	.	.	2.r	.	.	8g\)	.	8gg\)yy	.	8gg\)	.	8r	8r	.	8r	.	8r	.	8r	8r	.	8r	.	8r	.
!LO:SIC:o=4Ret\	!	!	!	!	!	!	!	!	!	!	!	!	!	!	!	!	!	!	!	!	!	!	!	!	!	!	!	!	!	!	!	!	!	!	!
4GT\	.	4G^</	4G\	.	.	.	.	.	.	.	.	.	.	.	.	4G^\ 4d	f	4B^/	f	4g^/	f	16g/LL	16g\LL	.	4GG^/ 4G	.	4g^/ 4dd	f	(4dd/	(4b^\	f	[4gg^<\	.	[4gg^<\	f
.	.	.	.	.	.	.	.	.	.	.	.	.	.	.	.	.	.	.	.	.	.	16g/J	16g\J	.	.	.	.	.	.	.	.	.	.	.	.
.	.	.	.	.	.	.	.	.	.	.	.	.	.	.	.	.	.	.	.	.	.	8g/J	8g\J	.	.	.	.	.	.	.	.	.	.	.	.
!LO:SIC:o=8Re\	!	!	!	!	!	!	!	!	!	!	!	!	!	!	!	!	!	!	!	!	!	!	!	!	!	!	!	!	!	!	!	!	!	!	!
8G\	.	8Fn'/L	8Fn\L	.	.	.	.	.	.	.	.	.	.	.	.	8G\L 8d	.	8B/L	.	8g/L	.	8g/L	8g\L	.	8FF'>/L 8Fn	.	8g/L 8dd	.	8dd/L)	8b\L)	.	8gg\L]	.	8gg\L]	.
!LO:SIC:o=8Re/	!	!	!	!	!	!	!	!	!	!	!	!	!	!	!	!	!	!	!	!	!	!	!	!	!	!	!	!	!	!	!	!	!	!	!
8c/	.	8E'/	8E\	.	.	.	.	.	.	.	.	.	.	.	.	8G\ 8e	.	8c/	.	8g'/	.	8g/	8g\	.	8EE'>/ 8E	.	8cc/ 8ee	.	8cc'/	8cc\	.	8gg'\	.	8gg'\	.
!LO:SIC:o=8Re\	!	!	!	!	!	!	!	!	!	!	!	!	!	!	!	!	!	!	!	!	!	!	!	!	!	!	!	!	!	!	!	!	!	!	!
8G\	.	8D'/J	8D\J	.	.	.	.	.	.	.	.	.	.	.	.	8G\J 8f	.	8B/J	.	8g'/J	.	8g/J	8g\J	.	8DD'>/J 8D	.	8g/J 8dd	.	8dd'/J 8ff	8b\J	.	8gg'\J	.	8gg'\J	.
*	*	*v	*v	*	*	*	*	*	*	*	*	*	*	*	*	*	*	*	*	*	*	*v	*v	*	*	*	*	*	*v	*v	*	*	*	*	*
!!LO:PB:g=original
=4	=4	=4	=4	=4	=4	=4	=4	=4	=4	=4	=4	=4	=4	=4	=4	=4	=4	=4	=4	=4	=4	=4	=4	=4	=4	=4	=4	=4	=4	=4	=4	=4
!LO:SIC:o=4Ret</	!	!	!	!	!	!	!	!	!	!	!	!	!	!	!	!	!	!	!	!	!	!	!	!	!	!	!	!	!	!	!	!
4cT/	.	[4C/	.	4c\	.	.	4e\	.	4g/	.	.	(8.g/L	Gdyś-	.	[4G\ [4e	.	(>[4c/	.	((8.g/L	.	4c/ 4cc	.	((4CC/ 4C	.	[>4cc\ [>4ee	.	[>4cc\ [4ee	.	[4gg\	.	((8.gg\L	.
.	.	.	.	.	.	.	.	.	.	.	.	16cc/Jk)	.	.	.	.	.	.	16cc/Jk)	.	.	.	.	.	.	.	.	.	.	.	16ccc\Jk)	.
!LO:SIC:o=8Re/	!	!	!	!	!	!	!	!	!	!	!	!	!	!	!	!	!	!	!	!	!	!	!	!	!	!	!	!	!	!	!	!
8c/	.	8C/]	.	8C/	.	.	8e\	.	8g/	.	.	8cc\	-śmy	.	8G\L] 8e]	.	8c/L] 8g)	.	8cc\L)	.	8r	.	8C\)) 8c	.	8cc\] 8ee]	.	8cc\] 8ee]	.	8gg\]	.	8ccc'\L)	.
!LO:SIC:o=8Re/	!	!	!	!	!	!	!	!	!	!	!	!	!	!	!	!	!	!	!	!	!	!	!	!	!	!	!	!	!	!	!	!
8c/	.	8C'/L	.	8c\	.	.	8e\	.	8g/	.	.	8cc\	już	.	8G\ 8e	.	8c'>/ 8g	.	8cc'\	.	8cc\L 8ee	.	8C'\L 8c	.	8cc\L 8ee	.	8cc'\L 8ee	.	8gg'\L	.	8ccc'\	.
!LO:SIC:o=8Re\	!	!	!	!	!	!	!	!	!	!	!	!	!	!	!	!	!	!	!	!	!	!	!	!	!	!	!	!	!	!	!	!
8G\	.	8GG'/	.	8G\	.	.	8d\	.	8g/	.	.	8b\	wy-	.	8G\ 8d	.	8d'>/ 8g	.	8b'\	.	8g\ 8dd	.	8GG'\ 8G	.	8g\ 8dd	.	8b'\ 8dd	.	8gg'\	.	8bb'\	.
!LO:SIC:o=8Re/	!	!	!	!	!	!	!	!	!	!	!	!	!	!	!	!	!	!	!	!	!	!	!	!	!	!	!	!	!	!	!	!
8c/	.	8C'/J	.	8c\	.	.	8e\	.	8g/	.	.	8cc\	-słu-	.	8G\J 8e	.	8c'>/J 8g	.	8cc'\J	.	8e\J 8cc	.	8C'\J 8c	.	8cc\J 8ee	.	8cc'\J 8ee	.	8gg'\J	.	8ccc'\J	.
=5	=5	=5	=5	=5	=5	=5	=5	=5	=5	=5	=5	=5	=5	=5	=5	=5	=5	=5	=5	=5	=5	=5	=5	=5	=5	=5	=5	=5	=5	=5	=5	=5
*	*	*	*	*	*	*	*	*	*	*	*	*	*	*	*	*	*	*	*	*	*^	*	*^	*	*^	*	*	*	*	*	*	*
*	*	*	*	*	*	*	*	*	*	*	*	*	*	*	*2\right	*	*	*	*	*	*	*	*	*	*	*	*	*	*	*	*	*	*	*	*
!LO:SIC:o=4Re\	!	!	!	!	!	!	!	!	!	!	!	!	!	!	!	!	!	!	!	!	!	!	!	!	!	!	!	!	!	!	!	!	!	!	!
4G\	.	4GG/	.	4G\	.	.	(8.B\L	.	4g/	.	.	(8.dd\L	-cha-	.	2G\ 2g	.	(8.b\L	.	(8.dd\L	.	4g/	4g\	.	8.B/L	4GG\	.	8.dd/L	4g\	.	(8.b\L 8.dd	.	[4gg\	.	(8.ddd\L	.
.	.	.	.	.	.	.	16c\Jk)	.	.	.	.	16ee\Jk)	.	.	.	.	16cc\Jk	.	16ee\Jk	.	.	.	.	16c/Jk	.	.	16ee/Jk	.	.	16cc\Jk 16ee	.	.	.	16eee\Jk	.
!LO:SIC:o=4Re\	!	!	!	!	!	!	!	!	!	!	!	!	!	!	!	!	!	!	!	!	!	!	!	!	!	!	!	!	!	!	!	!	!	!	!
4G\	.	4G\	.	4G\	.	.	4B\	.	4g/	.	.	4dd\	-li	.	.	.	4b\)	.	4dd\)	.	8g/L	8g\L	.	4B/	4G\	.	4dd/	4g\	.	4b\) 4dd	.	4gg\]	.	4ddd\)	.
.	.	.	.	.	.	.	.	.	.	.	.	.	.	.	.	.	.	.	.	.	16g/L	16g\L	.	.	.	.	.	.	.	.	.	.	.	.	.
.	.	.	.	.	.	.	.	.	.	.	.	.	.	.	.	.	.	.	.	.	16g/JJ	16g\JJ	.	.	.	.	.	.	.	.	.	.	.	.	.
!LO:SIC:o=4Re\	!	!	!	!	!	!	!	!	!	!	!	!	!	!	!	!	!	!	!	!	!	!	!	!	!	!	!	!	!	!	!	!	!	!	!
4G\	.	4G\	.	4G\	.	.	4B\	.	4g/	.	.	4dd\	Mszy	.	4G\ 4g	.	4b\	.	(4dd\	.	8g/L	8g\L	.	4B/	4G\	.	4dd/	4g\	.	(>4b'\ (>4dd	.	4gg\	.	(4ddd'\	.
.	.	.	.	.	.	.	.	.	.	.	.	.	.	.	.	.	.	.	.	.	8g/J	8g\J	.	.	.	.	.	.	.	.	.	.	.	.	.
*	*	*	*	*	*	*	*	*	*	*	*	*	*	*	*	*	*	*	*	*	*	*	*	*v	*v	*	*	*	*	*	*	*	*	*	*
*	*	*	*	*	*	*	*	*	*	*	*	*	*	*	*	*	*	*	*	*	*	*	*	*	*	*v	*v	*	*	*	*	*	*	*
=6	=6	=6	=6	=6	=6	=6	=6	=6	=6	=6	=6	=6	=6	=6	=6	=6	=6	=6	=6	=6	=6	=6	=6	=6	=6	=6	=6	=6	=6	=6	=6	=6	=6
*	*	*	*	*	*	*	*	*	*	*	*	*	*	*	*^	*	*	*	*	*	*	*	*	*	*	*	*	*	*	*	*	*	*
*	*	*	*	*	*	*	*	*	*	*	*	*	*	*	*	*	*	*	*	*	*	*	*	*	*	*	*	*	*	*	*2\right	*	*	*
!LO:SIC:o=4Ret</	!	!	!	!	!	!	!	!	!	!	!	!	!	!	!	!	!	!	!	!	!	!	!	!	!	!	!	!	!	!	!	!	!	!
4cT/	.	4C/	.	4C/	.	.	4c\	.	4g/	.	.	4ee\	świę-	.	4c\ 4g	2ryy	.	(16cc\LL	.	(16ee\LL)	.	4g/	4g\	.	4C\ 4c	.	4cc\ 4ee	.	4cc'\) 4ee)	.	2gg\	.	4eee'\)	.
.	.	.	.	.	.	.	.	.	.	.	.	.	.	.	.	.	.	16g\	.	16cc\	.	.	.	.	.	.	.	.	.	.	.	.	.	.
.	.	.	.	.	.	.	.	.	.	.	.	.	.	.	.	.	.	16e\	.	16g\	.	.	.	.	.	.	.	.	.	.	.	.	.	.
.	.	.	.	.	.	.	.	.	.	.	.	.	.	.	.	.	.	16g\JJ	.	16cc\JJ	.	.	.	.	.	.	.	.	.	.	.	.	.	.
!LO:SIC:o=8Re/	!	!	!	!	!	!	!	!	!	!	!	!	!	!	!	!	!	!	!	!	!	!	!	!	!	!	!	!	!	!	!	!	!	!
8c/	.	4c\	.	4c\	.	.	4c\	.	4g/	.	.	4ee\	-tej	.	4c\ 4g	.	.	4cc\)	.	4ee\)	.	4g/	4g\	.	4C\ 4c	.	4cc\ 4ee	.	4cc\ 4ee	.	.	.	4eee'\	.
8r	.	.	.	.	.	.	.	.	.	.	.	.	.	.	.	.	.	.	.	.	.	.	.	.	.	.	.	.	.	.	.	.	.	.
!LO:SIC:o=4Re\	!	!	!	!	!	!	!	!	!	!	!	!	!	!	!	!	!	!	!	!	!	!	!	!	!	!	!	!	!	!	!	!	!	!
4G\	.	(8.B\L	.	(8.B\L	.	.	(8.d\L	.	4g/	.	.	(8.ff^\L	O	.	4g/	8.B\L	.	(8.dd\L	>	(8.ff\L	>	4g/	4g\	.	(8.BB\L 8.B	.	(8.dd\L 8.ff	.	(8.dd\L 8.ff	>	4gg\	.	(8.fff\L	>
.	.	16c\Jk)	.	16c\Jk)	.	.	16c\Jk)	.	.	.	.	16ee\Jk)	.	.	.	16c\Jk	.	16cc\Jk)	]]	16ee\Jk)	]]	.	.	.	16C\Jk) 16c	.	16cc\Jk) 16ee	.	16cc\Jk) 16ee	]]	.	.	16eee\Jk)	]]
*	*	*	*	*	*	*	*	*	*	*	*	*	*	*	*v	*v	*	*	*	*	*	*	*	*	*	*	*	*	*	*	*	*	*	*
=7	=7	=7	=7	=7	=7	=7	=7	=7	=7	=7	=7	=7	=7	=7	=7	=7	=7	=7	=7	=7	=7	=7	=7	=7	=7	=7	=7	=7	=7	=7	=7	=7	=7
*	*	*	*	*	*	*	*	*	*	*	*	*	*	*	*	*	*	*	*	*	*	*	*	*^	*	*	*	*	*	*	*	*	*
!LO:SIC:o=4Ret\	!	!	!	!	!	!	!	!	!	!	!	!	!	!	!	!	!	!	!	!	!	!	!	!	!	!	!	!	!	!	!	!	!	!
4GT\	.	4G\	.	4G\	.	.	4c\	.	4g/	.	.	4ee\	Bo-	.	4G\ 4g	.	4cc\	.	(4ee\	.	4g/	4g\	.	4c/	4GG\	.	(4cc\ 4ee	.	(4cc\ 4ee	.	4.gg\	.	(4eee\	.
!LO:SIC:o=8Re\	!	!	!	!	!	!	!	!	!	!	!	!	!	!	!	!	!	!	!	!	!	!	!	!	!	!	!	!	!	!	!	!	!	!
8G\	.	8GG/	.	8G\	.	.	8B\	.	8g/	.	.	8dd\	-że	.	8G\ 8g	.	8b\	.	16dd\)	.	8g/	8g\	.	8B/	8GG\	.	8g\) 8dd	.	8b\) 8dd	.	.	.	16ddd\)	.
.	.	.	.	.	.	.	.	.	.	.	.	.	.	.	.	.	.	.	(<16g/LL	.	.	.	.	.	.	.	.	.	.	.	.	.	(16gg\LL	.
8r	.	8r	.	8r	.	.	8r	.	8r	.	.	8r	.	.	8r	.	8r	.	16f#X/	.	8r	8ryy	.	8r	8r	.	8r	.	8r	.	8r	.	16ff#X\	.
.	.	.	.	.	.	.	.	.	.	.	.	.	.	.	.	.	.	.	16g/JJ	.	.	.	.	.	.	.	.	.	.	.	.	.	16gg\JJ	.
4r	.	4r	.	4r	.	.	4r	.	4r	.	.	4r	.	.	4r	.	4r	.	16a/LL	.	4r	4ryy	.	4r	4r	.	4r	.	4r	.	4r	.	16aa\LL	.
.	.	.	.	.	.	.	.	.	.	.	.	.	.	.	.	.	.	.	16b/	.	.	.	.	.	.	.	.	.	.	.	.	.	16bb\	.
.	.	.	.	.	.	.	.	.	.	.	.	.	.	.	.	.	.	.	16cc/	.	.	.	.	.	.	.	.	.	.	.	.	.	16ccc\	.
.	.	.	.	.	.	.	.	.	.	.	.	.	.	.	.	.	.	.	16cc#X/JJ	.	.	.	.	.	.	.	.	.	.	.	.	.	16ccc#X\JJ	.
*	*	*	*	*	*	*	*	*	*	*	*	*	*	*	*	*	*	*	*	*	*	*	*	*v	*v	*	*	*	*	*	*	*	*	*
=8	=8	=8	=8	=8	=8	=8	=8	=8	=8	=8	=8	=8	=8	=8	=8	=8	=8	=8	=8	=8	=8	=8	=8	=8	=8	=8	=8	=8	=8	=8	=8	=8	=8
*	*	*	*	*	*	*	*	*	*	*	*	*	*	*	*	*	*	*	*	*	*	*	*	*	*	*^	*	*^	*	*	*	*	*
4r	.	[4F#X\	.	4F#X\	.	.	4d\	.	4a/	.	.	4dd\	Niech	.	[4f#X\	.	[4d/ [4a	.	(>4dd\)	.	4r	4ryy	.	[4F#X\	.	[>4dd/	[<4dd\	.	[>4a/	[<4a\	.	[4dd\	.	(4ddd\)	.
4r	.	8.F#\L]	.	8.F#\	.	.	8.d\	.	8.a/	.	.	8.a\	lud	.	8.f#\L]	.	8.d/L] 8.a]	.	8.a/L)	.	4r	4ryy	.	8.F#\L]	.	8.dd/L]	8.dd\L]	.	8.a/L]	8.a\L]	.	8.dd\L]	.	8.aa\L)	.
.	.	16F#|>\Jk	.	16F#\	.	.	16d\	.	16a/	.	.	16a\	któ-	.	16f#\Jk	.	16d/Jk 16a	.	16a|>/Jk	.	.	.	.	16F#\Jk	.	16dd/Jk	16dd\Jk	.	16a/Jk	16a\Jk	.	16dd\Jk	.	16aa|\Jk	.
!LO:SIC:o=4Ret\	!	!	!	!	!	!	!	!	!	!	!	!	!	!	!	!	!	!	!	!	!	!	!	!	!	!	!	!	!	!	!	!	!	!	!
4GT\	.	8.Fn|>\L	.	8.Fn\	.	.	8.d\	.	8.g/	.	.	8.b\	-ry	.	8.fn\L	.	8.g/L	.	8.b|>/L	.	8.g/L	8.g\L	.	8.Fn\L	.	8.g/L 8.dd	4ryy	.	8.g/L 8.b	4ryy	.	8.dd\L	.	8.bb|\L	.
.	.	16F|>\Jk	.	16F\	.	.	16d\	.	16g/	.	.	16b\	Cię	.	16f\Jk	.	16g/Jk	.	16b/Jk	.	16g/Jk	16g\Jk	.	16F\Jk	.	16g/Jk 16dd	.	.	16g/Jk 16b	.	.	16dd\Jk	.	16bb|\Jk	.
!!LO:PB:g=original
=9	=9	=9	=9	=9	=9	=9	=9	=9	=9	=9	=9	=9	=9	=9	=9	=9	=9	=9	=9	=9	=9	=9	=9	=9	=9	=9	=9	=9	=9	=9	=9	=9	=9	=9	=9
!LO:SIC:o=4Ret\	!	!	!	!	!	!	!	!	!	!	!	!	!	!	!	!	!	!	!	!	!	!	!	!	!	!	!	!	!	!	!	!	!	!	!
4GT\	.	4.E\	.	4E\	chwa-	.	4c\	.	4g/	.	.	4cc\	.	.	4.e\	.	4.g/	.	(4cc\	.	8g/L	8g\L	.	4.E\	.	4.ee/	4.cc\	.	4cc/	[>4g\	.	4.cc\	.	(4ccc\	.
.	.	.	.	.	.	.	.	.	.	.	.	.	.	.	.	.	.	.	.	.	16g/L	16g\L	.	.	.	.	.	.	.	.	.	.	.	.	.
.	.	.	.	.	.	.	.	.	.	.	.	.	.	.	.	.	.	.	.	.	16g/JJ	16g\JJ	.	.	.	.	.	.	.	.	.	.	.	.	.
!LO:SIC:o=8Re\	!	!	!	!	!	!	!	!	!	!	!	!	!	!	!	!	!	!	!	!	!	!	!	!	!	!	!	!	!	!	!	!	!	!	!
8G\	.	.	.	8E\	-li	.	8c\	.	8g/	.	.	8g/	.	.	.	.	.	.	8g/)	.	8g/	8g\	.	.	.	.	.	.	8g/	8g\]	.	.	.	8gg\)	.
8r	.	8r	.	8r	.	.	8r	.	8r	.	.	8r	.	.	8r	.	8r	.	8r	.	8r	8ryy	.	8r	.	8r	8ryy	.	8r	8r	.	8r	.	8r	.
!	!	!	!LO:DY:b	!	!	!	!	!	!	!	!	!	!	!	!	!	!	!	!	!	!	!	!	!	!	!	!	!	!	!	!	!	!	!	!
4r	.	4C\	f	4C\ 4c	Twa	.	4e\	.	4a/	.	.	4cc\	.	.	4c\ 4e	.	4a/	f	4cc\	f	4e/ 4cc	4ryy	.	4C\ 4c	.	4ee/	4cc\	f	4cc/ 4a/	4ryy	.	4aa\	f	4ccc\	.
=10	=10	=10	=10	=10	=10	=10	=10	=10	=10	=10	=10	=10	=10	=10	=10	=10	=10	=10	=10	=10	=10	=10	=10	=10	=10	=10	=10	=10	=10	=10	=10	=10	=10	=10	=10
*	*	*2\right	*	*2\right	*	*	*2\right	*	*	*	*	*2\right	*	*	*tremolo	*	*	*	*	*	*	*	*	*2\right	*	*	*2\right	*	*	*2\right	*	*	*	*	*
*	*	*tremolo	*	*	*	*	*	*	*	*	*	*	*	*	*	*	*	*	*	*	*	*	*	*	*	*	*	*	*	*	*	*	*	*	*
!LO:SIC:o=4Re\	!	!	!	!	!	!	!	!	!	!	!	!	!	!	!	!	!	!	!	!	!	!	!	!	!	!	!	!	!	!	!	!	!	!	!
4G\	.	8D\L	.	2D\ 2d	ła-	.	2d\	.	2g/	.	.	2b\	.	.	8d\L	.	16g/LL	.	(16b\LL	.	2d/ 2b	4ryy	.	[2D\ 2d	.	[2dd/	[2dd\	.	2b/	[2g\	.	[2gg\	.	(16bb\LL	.
.	.	.	.	.	.	.	.	.	.	.	.	.	.	.	.	.	16d/	.	16g\	.	.	.	.	.	.	.	.	.	.	.	.	.	.	16gg\	.
.	.	8D\	.	.	.	.	.	.	.	.	.	.	.	.	8d\	.	16B/	.	16dd\	.	.	.	.	.	.	.	.	.	.	.	.	.	.	16ddd\	.
.	.	.	.	.	.	.	.	.	.	.	.	.	.	.	.	.	16d/JJ	.	16b\JJ	.	.	.	.	.	.	.	.	.	.	.	.	.	.	16bb\JJ	.
4r	.	8D\	.	.	.	.	.	.	.	.	.	.	.	.	8d\	.	16b/LL	.	16gg\LL	.	.	4ryy	.	.	.	.	.	.	.	.	.	.	.	16ggg\LL	.
.	.	.	.	.	.	.	.	.	.	.	.	.	.	.	.	.	16g/	.	16dd\	.	.	.	.	.	.	.	.	.	.	.	.	.	.	16ddd\	.
.	.	8D\	.	.	.	.	.	.	.	.	.	.	.	.	8d\	.	16d/	.	16b\)	.	.	.	.	.	.	.	.	.	.	.	.	.	.	16bb\	.
.	.	.	.	.	.	.	.	.	.	.	.	.	.	.	.	.	[16g/JJ	.	16g\JJ	.	.	.	.	.	.	.	.	.	.	.	.	.	.	16gg\JJ	.
4r	.	8D\	.	8.D\	-ska	.	8.d\	.	8.g/	.	.	8.a\	.	.	8d\	.	8.g/L]	.	8.a\L	.	8.a/L	8.d\L	.	8.D\L]	.	8.dd/L]	8.dd\L]	.	4a/	8.g\L]	.	8.gg\L]	.	8.aa\L)	.
.	.	8D\J	.	.	.	.	.	.	.	.	.	.	.	.	8d\J	.	.	.	.	.	.	.	.	.	.	.	.	.	.	.	.	.	.	.	.
*	*	*Xtremolo	*	*	*	*	*	*	*	*	*	*	*	*	*Xtremolo	*	*	*	*	*	*	*	*	*	*	*	*	*	*	*	*	*	*	*	*
.	.	.	.	16D\	wspo-	.	16A\	.	16f#X/	.	.	16dd\	.	.	.	.	16f#X|</Jk	.	16dd\Jk	.	16dd/Jk	16A\Jk	.	16D\Jk	.	16dd/Jk	16dd\Jk	.	.	16f#X\Jk	.	16ff#X|\Jk	.	16ddd|\Jk	.
*	*	*	*	*	*	*	*	*	*	*	*	*	*	*	*	*	*	*	*	*	*	*	*	*	*	*v	*v	*	*	*	*	*	*	*	*
=11	=11	=11	=11	=11	=11	=11	=11	=11	=11	=11	=11	=11	=11	=11	=11	=11	=11	=11	=11	=11	=11	=11	=11	=11	=11	=11	=11	=11	=11	=11	=11	=11	=11	=11
!LO:SIC:o=4Ret\	!	!	!	!	!	!	!	!	!	!	!	!	!	!	!	!	!	!	!	!	!	!	!	!	!	!	!	!	!	!	!	!	!	!
4GT\	.	4GG/	.	4G\	-mo-	.	4B\	.	4g/	.	.	4dd\	.	.	4.G/ 4.d	.	4.g/	.	(4dd\	.	4.g/	4.B\	.	4.GG\ 4.G	.	4.g/ 4.dd	.	4.b/	4.g\	.	4.gg\	.	(4ddd\	.
!LO:SIC:o=8Re\	!	!	!	!	!	!	!	!	!	!	!	!	!	!	!	!	!	!	!	!	!	!	!	!	!	!	!	!	!	!	!	!	!	!
8G\	.	8G\	.	8G\	-że	.	8B\	.	8g/	.	.	8g/	.	.	.	.	.	.	8g/)	.	.	.	.	.	.	.	.	.	.	.	.	.	8gg\)	.
!	!	!	!	!	!	!	!	!	!	!	!LO:DY:a	!	!	!	!	!	!	!	!	!	!	!	!	!	!	!	!	!	!	!	!	!	!	!
8r	.	8r	.	8r	.	.	8r	.	8r	.	p	8r	.	.	8r	.	8r	.	8r	.	8r	8ryy	.	8r	.	8r	.	8r	8ryy	.	8r	.	8r	.
!	!	!	!	!	!	!LO:DY:a	!	!	!	!	!	!	!	!	!	!LO:DY:a	!	!	!	!	!	!	!	!	!	!	!	!	!	!	!	!	!	!
4r	.	4r	.	8.G\	Od-	p	4r	.	8.g/	.	.	4r	.	.	8.g|>\L	p	4r	.	4r	.	4r	4ryy	.	4r	.	8.g\L 8.gg	p	4r	4ryy	.	4r	.	4r	.
.	.	.	.	16G\	-puść	.	.	.	16g/	.	.	.	.	.	16g|>\Jk	.	.	.	.	.	.	.	.	.	.	16g\Jk 16gg	.	.	.	.	.	.	.	.
=12	=12	=12	=12	=12	=12	=12	=12	=12	=12	=12	=12	=12	=12	=12	=12	=12	=12	=12	=12	=12	=12	=12	=12	=12	=12	=12	=12	=12	=12	=12	=12	=12	=12	=12
2.r	.	4r	.	(4.G\	nam	.	4r	.	2g/	.	.	4r	.	.	[2g\	.	4r	.	4r	.	4r	4r	.	2.r	.	[2g\ [2gg	.	4r	4r	.	4r	.	4r	.
.	.	8r	.	.	.	.	8r	.	.	.	.	8r	.	.	.	.	8r	.	8r	.	8r	8r	p	.	.	.	.	8r	8r	.	8r	.	8r	.
.	.	(8Fn|>\L	.	8Fn\)	.	.	(8d\	.	.	.	.	(8b\	.	.	.	.	(8d/L	.	(8b\L	.	(8b/L	[>8g\L	.	.	.	.	.	[<8g/L	8g\L	.	(8b\L	.	(8bb\L	.
.	.	8.E\)	.	8.E\	na-	.	8.c\)	.	8.g/	.	.	8.cc\)	.	.	8.g\L]	.	8.c/)	.	8.cc\)	.	8.cc/)	8.g\]	.	.	.	8.g\L] 8.gg]	.	8.g/]	8.g\	.	8.cc\)	.	8.ccc\)	.
.	.	16C|>\Jk	.	16C\	-sze	.	16c|>\	.	16g/	.	.	16ee|>\	.	.	16g|>\Jk	.	16cc|</Jk	.	16ee|>\Jk	.	16ee|>/Jk	16cc\Jk	.	.	.	16g\Jk 16gg	.	16cc/Jk	16cc\Jk	.	16ee|\Jk	.	16eee|\Jk	.
=13	=13	=13	=13	=13	=13	=13	=13	=13	=13	=13	=13	=13	=13	=13	=13	=13	=13	=13	=13	=13	=13	=13	=13	=13	=13	=13	=13	=13	=13	=13	=13	=13	=13	=13
*	*	*	*	*	*	*	*	*	*	*	*	*	*	*	*	*	*	*	*	*	*	*	*	*^	*	*	*	*	*	*	*	*	*	*
!LO:SIC:o=4Ret\	!	!	!	!	!	!	!	!	!	!	!	!	!	!	!	!	!	!	!	!	!	!	!	!	!	!	!	!	!	!	!	!	!	!	!
4GT\	p	4G\	.	4G\	wi-	.	4c\	.	4g/	.	.	4ee|>\	.	.	4.g\	.	(4cc\	.	(4ee\	.	4ee/	4cc\	.	4r	2.r	.	4.g\ 4.gg	.	4cc/	4cc\	.	4ee\	.	4eee\	.
!LO:SIC:o=8Re\	!	!	!	!	!	!	!	!	!	!	!	!	!	!	!	!	!	!	!	!	!	!	!	!	!	!	!	!	!	!	!	!	!	!	!
8G\	.	8GG/	.	8G\	-ny	.	8B\	.	8g/	.	.	8dd|>\	.	.	.	.	8b\)	.	8dd\)	.	8dd/	8g\	.	4r	.	.	.	.	8b/	8b\	.	8dd\	.	8ddd\	.
8r	.	8r	.	8r	.	.	8r	.	8r	.	.	8r	.	.	8r	.	8r	.	8r	.	8r	8r	.	.	.	.	8r	.	8r	8r	.	8r	.	8r	.
4r	.	4r	.	8.G\	Od-	.	4r	.	8.g/	.	.	4r	.	.	8.g|>\L	.	4r	.	4r	.	4r	4r	.	8.G|>/L	.	.	4r	.	8.g'/L	8.g\L	.	4r	.	4r	.
.	.	.	.	16G#X\	-puść	.	.	.	16g#X/	.	.	.	.	.	16g#X|>\Jk	.	.	.	.	.	.	.	.	16G#X|>/Jk	.	.	.	.	16g#X'/Jk	16g#\Jk	.	.	.	.	.
*	*	*	*	*	*	*	*	*	*	*	*	*	*	*	*	*	*	*	*	*	*v	*v	*	*	*	*	*	*	*	*	*	*	*	*	*
=14	=14	=14	=14	=14	=14	=14	=14	=14	=14	=14	=14	=14	=14	=14	=14	=14	=14	=14	=14	=14	=14	=14	=14	=14	=14	=14	=14	=14	=14	=14	=14	=14	=14	=14
2.r	.	4r	.	(4.A\	nam	.	4r	.	2a/	.	.	4r	.	.	[2a\	.	4r	.	4r	.	2.r	.	[2A/	4r	.	2.r	.	[2a/	2a\	.	4r	.	4r	.
.	.	8r	.	.	.	.	8r	.	.	.	.	8r	.	.	.	.	8r	.	8r	.	.	.	.	8rGG	.	.	.	.	.	.	8r	.	8r	.
.	.	(8Gn\L	.	8Gn\)	.	.	8e\	.	.	.	.	(8cc#X\	.	.	.	.	(8e/L	.	(8cc#X\L	.	.	.	.	8Gn\L	.	.	.	.	.	.	(8cc#X\L	.	8ccc#X\L	.
.	.	8.F\)	.	8.F\	na-	.	8.d\	.	8.a/	.	.	8.dd\)	.	.	8.a\L]	.	8.d/)	.	8.dd\)	.	.	.	8.A/L]	8.F\	.	.	.	8.a/L]	8.a\L	.	8.dd\)	.	8.ddd\	.
.	.	16D|>\Jk	.	16D\	-sze	.	16d\	.	16a/	.	.	16ff\	.	.	16a|>\Jk	.	16dd/Jk	.	16ff|>\Jk	.	.	.	16A/Jk	16D\Jk	.	.	.	16dd|/Jk	16a\Jk	.	16ff\Jk	.	16fff\Jk	.
!!LO:PB:g=original
=15	=15	=15	=15	=15	=15	=15	=15	=15	=15	=15	=15	=15	=15	=15	=15	=15	=15	=15	=15	=15	=15	=15	=15	=15	=15	=15	=15	=15	=15	=15	=15	=15	=15	=15
*	*	*^	*	*	*	*	*	*	*	*	*	*	*	*	*	*	*	*	*	*	*	*	*	*	*	*	*	*	*	*	*	*	*	*
2.r	.	4A\	2ryy	.	4A\	.	.	4d\	.	4a/	wi-	.	4ff\	wi-	.	4.a\	.	(4dd\	.	(4ff\	.	2.r	.	4.A/	4.AA\	.	(4dd\ 4ff	.	(4dd/	4.a\	.	(4ff\	.	(4fff\	.
.	.	8AA/	.	.	8A\	.	.	8c#X\	.	8a/	-ny	.	8ee\	-ny	.	.	.	8cc#X\)	.	8ee\)	.	.	.	.	.	.	8cc#X\) 8ee	.	8cc#X/)	.	.	8ee\)	.	8eee\)	.
.	.	8r	.	.	8r	.	.	8r	.	8r	.	.	8r	.	.	8r	.	8r	.	8r	.	.	.	8r	8r	.	8r	.	8r	8r	.	8r	.	8r	.
!	!	!	!	!	!	!	!	!	!	!	!	!LO:DY:a	!	!	!	!	!	!	!	!	!	!	!	!	!	!	!	!	!	!	!	!	!	!	!
.	.	8.A/L	4r	.	8.A\	.	.	4r	.	8.a/	Od-	<	4r	.	.	8.a|>\L	.	4r	.	4r	.	.	.	8.A/L	8.A\L	.	4r	.	8.a/L	8.a\L	.	4r	.	4r	.
.	.	16A/Jk	.	.	16A\	.	.	.	.	16a/	-puść	.	.	.	.	16a|>\Jk	.	.	.	.	.	.	.	16A/Jk	16A\Jk	.	.	.	16a/Jk	16a\Jk	.	.	.	.	.
=16	=16	=16	=16	=16	=16	=16	=16	=16	=16	=16	=16	=16	=16	=16	=16	=16	=16	=16	=16	=16	=16	=16	=16	=16	=16	=16	=16	=16	=16	=16	=16	=16	=16	=16	=16
!	!	!	!	!LO:HP:b	!	!	!	!	!	!	!	!	!	!	!	!	!	!	!	!	!	!	!	!	!	!	!	!	!	!	!	!	!	!	!
2.r	.	2B-X/	4r	<	2B-X\	.	.	4r	.	2b-X/	nam	.	4r	.	.	(2b-X\	.	4r	.	4r	.	2.r	.	2B-X/	2B-\	<	2.r	.	2b-X/	2b-\	<	2.r	.	2.r	.
.	.	.	4rD	.	.	.	.	4r	.	.	.	.	4r	.	.	.	.	4r	.	4r	.	.	.	.	.	.	.	.	.	.	.	.	.	.	.
.	.	8.Bn/L	8.Bn\L	[	8.Bn\	.	.	8.Bn\	.	8.bn/	Od-	.	8.bn/	Od-	.	8.bn\L)	.	8.bn/L	.	8.bn/L	.	.	.	8.Bn/L	8.Bn\L	.	.	.	8.bn/L	8.bn\L	.	.	.	.	.
.	.	16G/Jk	16G\Jk	.	16G\	.	.	16G\	.	16g/	-puść	[	16g/	-puść	.	16g\Jk|	.	16g/Jk	.	16g/Jk	.	.	.	16G/Jk	16G\Jk	[[	.	.	16g/Jk	16g\Jk	.	.	.	.	.
*	*	*v	*v	*	*	*	*	*	*	*	*	*	*	*	*	*	*	*	*	*	*	*	*	*	*	*	*	*	*	*	*	*	*	*	*
=17	=17	=17	=17	=17	=17	=17	=17	=17	=17	=17	=17	=17	=17	=17	=17	=17	=17	=17	=17	=17	=17	=17	=17	=17	=17	=17	=17	=17	=17	=17	=17	=17	=17	=17
*	*	*	*	*	*	*	*	*	*	*	*	*	*	*	*	*	*	*	*	*	*	*	*	*	*	*^	*	*	*	*	*	*	*	*
4r	.	8c\	.	8c\	.	.	8c\	.	8cc\	.	.	8cc\	nam	.	8cc\	.	8cc\	.	8cc\	.	4r	.	8c/	8c\	.	4r	4r	.	8cc/	8cc\	[	4r	.	4r	.
!	!	!	!	!	!	!LO:DY:a	!	!	!	!	!	!	!	!	!	!	!	!	!	!	!	!	!	!	!	!	!	!	!	!	!	!	!	!	!
.	.	8r	.	8r	.	f	8r	.	8r	.	.	8r	.	.	8r	.	8r	.	8r	.	.	.	8r	8ryy	.	.	.	.	8r	8r	f	.	.	.	.
!LO:SIC:o=2Ret</	!	!	!	!	!	!	!	!LO:DY:a	!	!	!	!	!	!	!	!	!	!	!	!	!	!	!	!	!	!	!	!	!	!	!	!	!	!	!
2cT/	f	4A-X\	.	4A-X\	.	.	4c\	f	4f#X/	.	.	4cc\	Od-	.	4c\	f	4c/ 4f#X	.	4cc\	f	4f#X/ 4cc	f	4AA-X/ 4A-X	4ryy	.	4cc/	4cc\	f	4cc/	4f#X\	.	4ff#X\	.	4ccc\	f
.	.	4A-\	.	4A-\	.	.	4c\	.	4d/	.	.	4f#X/	-puść	.	4c\ 4d	.	4c/ 4f#	.	4f#X/	.	4f#/ 4cc	.	4AA-/ 4A-	4ryy	.	4dd/	4cc\	.	4cc/	4f#\	.	4ff#\	.	4ff#X\	.
*	*	*	*	*	*	*	*	*	*	*	*	*	*	*	*	*	*	*	*	*	*	*	*v	*v	*	*	*	*	*	*	*	*	*	*	*
*	*	*	*	*	*	*	*	*	*	*	*	*	*	*	*	*	*	*	*	*	*	*	*	*	*v	*v	*	*	*	*	*	*	*	*
=18	=18	=18	=18	=18	=18	=18	=18	=18	=18	=18	=18	=18	=18	=18	=18	=18	=18	=18	=18	=18	=18	=18	=18	=18	=18	=18	=18	=18	=18	=18	=18	=18	=18
*	*	*^	*	*	*	*	*	*	*	*	*	*	*	*	*	*	*	*	*	*	*	*	*	*	*	*	*	*	*	*	*	*	*
!LO:SIC:o=8Re\	!	!	!	!	!	!	!	!	!	!	!	!	!	!	!	!	!	!	!	!	!	!	!	!	!	!	!	!	!	!	!	!	!	!
8G\	.	8G/	8G\	.	4G\	.	.	4B\	.	4d/	.	.	4g/	nam	.	16B\LL 16d|	.	16B/LL 16g	.	16g|</LL	.	8g/ 8b	.	8GG/ 8G	.	8g/ 8dd	.	8b/	8g\	.	8gg\	.	8gg\	.
.	.	.	.	.	.	.	.	.	.	.	.	.	.	.	.	(16g\	.	(<16g/	.	(16g/	.	.	.	.	.	.	.	.	.	.	.	.	.	.
8r	.	(16F#X/LL	8r	.	.	.	.	.	.	.	.	.	.	.	.	16f#X\	.	16f#X/	.	16f#X/	.	8r	.	8r	.	8r	.	8r	8ryy	.	8r	.	8r	.
.	.	16G/JJ	.	.	.	.	.	.	.	.	.	.	.	.	.	16g\JJ	.	16g/JJ	.	16g/JJ	.	.	.	.	.	.	.	.	.	.	.	.	.	.
!	!	!	!	!	!	!	!	!	!	!	!	!	!	!	!	!	!	!LO:TX:a:t=col 1o.	!	!	!	!	!	!	!	!	!	!	!	!	!	!	!	!
4r	.	16A-X/LL	4r	.	4r	.	.	4r	.	4r	.	.	4r	.	.	16a-X\LL	.	16a-X/LLyy	.	16a-X/LL	.	4r	.	4r	.	4r	.	4r	4ryy	.	4r	.	4r	.
.	.	16G/	.	.	.	.	.	.	.	.	.	.	.	.	.	16g\	.	16g/yy	.	16g/	.	.	.	.	.	.	.	.	.	.	.	.	.	.
.	.	16An/	.	.	.	.	.	.	.	.	.	.	.	.	.	16an\	.	16an/yy	.	16an/	.	.	.	.	.	.	.	.	.	.	.	.	.	.
.	.	16G/JJ	.	.	.	.	.	.	.	.	.	.	.	.	.	16g\JJ	.	16g/JJyy	.	16g/JJ	.	.	.	.	.	.	.	.	.	.	.	.	.	.
4r	.	16B/LL	4r	.	4r	.	.	4r	.	4r	.	.	4r	.	.	16b\LL	.	16b\LLyy	.	16b/LL	.	4r	.	4r	.	4r	.	4r	4ryy	.	4r	.	4r	.
.	.	16G/	.	.	.	.	.	.	.	.	.	.	.	.	.	16g\	.	16g\yy	.	16g/	.	.	.	.	.	.	.	.	.	.	.	.	.	.
.	.	16d/	.	.	.	.	.	.	.	.	.	.	.	.	.	16d\	.	16dd\yy	.	16dd/	.	.	.	.	.	.	.	.	.	.	.	.	.	.
.	.	16B/JJ)	.	.	.	.	.	.	.	.	.	.	.	.	.	16B\JJ)	.	16b\JJ)yy	.	16b/JJ)	.	.	.	.	.	.	.	.	.	.	.	.	.	.
*	*	*v	*v	*	*	*	*	*	*	*	*	*	*	*	*	*	*	*	*	*	*	*	*	*	*	*	*	*v	*v	*	*	*	*	*
=19	=19	=19	=19	=19	=19	=19	=19	=19	=19	=19	=19	=19	=19	=19	=19	=19	=19	=19	=19	=19	=19	=19	=19	=19	=19	=19	=19	=19	=19	=19	=19	=19
2.ryy	.	2.ryy	.	2.r	.	.	2.r	.	2.r	.	.	2.r	.	.	2.ryy	.	(16ff\LLyy	.	(16ff\LL	.	2.ryy	.	2.ryy	.	2.ryy	.	2.ryy	.	2.r	.	2.r	.
.	.	.	.	.	.	.	.	.	.	.	.	.	.	.	.	.	16ee\yy	.	16ee\	.	.	.	.	.	.	.	.	.	.	.	.	.
.	.	.	.	.	.	.	.	.	.	.	.	.	.	.	.	.	16dd\yy	.	16dd\	.	.	.	.	.	.	.	.	.	.	.	.	.
.	.	.	.	.	.	.	.	.	.	.	.	.	.	.	.	.	16cc\JJyy	.	16cc\JJ	.	.	.	.	.	.	.	.	.	.	.	.	.
.	.	.	.	.	.	.	.	.	.	.	.	.	.	.	.	.	16b\LLyy	.	16b\LL	.	.	.	.	.	.	.	.	.	.	.	.	.
.	.	.	.	.	.	.	.	.	.	.	.	.	.	.	.	.	16cc\yy	.	16cc\	.	.	.	.	.	.	.	.	.	.	.	.	.
.	.	.	.	.	.	.	.	.	.	.	.	.	.	.	.	.	16dd\yy	.	16dd\	.	.	.	.	.	.	.	.	.	.	.	.	.
.	.	.	.	.	.	.	.	.	.	.	.	.	.	.	.	.	16ee\JJyy	.	16ee\JJ	.	.	.	.	.	.	.	.	.	.	.	.	.
.	.	.	.	.	.	.	.	.	.	.	.	.	.	.	.	.	16ff\LLyy	.	16ff\LL	.	.	.	.	.	.	.	.	.	.	.	.	.
.	.	.	.	.	.	.	.	.	.	.	.	.	.	.	.	.	16ee\yy	.	16ee\	.	.	.	.	.	.	.	.	.	.	.	.	.
.	.	.	.	.	.	.	.	.	.	.	.	.	.	.	.	.	16dd\yy	.	16dd\	.	.	.	.	.	.	.	.	.	.	.	.	.
.	.	.	.	.	.	.	.	.	.	.	.	.	.	.	.	.	16cc\J)Jyy	.	16cc\JJ)	.	.	.	.	.	.	.	.	.	.	.	.	.
!!LO:PB:g=original
=20	=20	=20	=20	=20	=20	=20	=20	=20	=20	=20	=20	=20	=20	=20	=20	=20	=20	=20	=20	=20	=20	=20	=20	=20	=20	=20	=20	=20	=20	=20	=20	=20
!	!	!	!	!	!	!	!	!	!	!	!	!	!	!	!	!	!	!	!LO:TX:t=P:problem=takt dopisany na łączeniu kartek	!	!	!	!	!	!	!	!	!	!	!	!	!
2.ryy	.	2.ryy	.	2.ryy	.	.	2.ryy	.	2.ryy	.	.	2.ryy	.	.	2.ryy	.	(>16b\LLyy	.	(16b\LL	.	2.ryy	.	2.ryy	.	2.ryy	.	2.ryy	.	2.ryy	.	2.ryy	.
.	.	.	.	.	.	.	.	.	.	.	.	.	.	.	.	.	16cc\yy	.	16cc\	.	.	.	.	.	.	.	.	.	.	.	.	.
.	.	.	.	.	.	.	.	.	.	.	.	.	.	.	.	.	16dd\yy	.	16dd\	.	.	.	.	.	.	.	.	.	.	.	.	.
.	.	.	.	.	.	.	.	.	.	.	.	.	.	.	.	.	16ee\JJyy	.	16ee\JJ	.	.	.	.	.	.	.	.	.	.	.	.	.
.	.	.	.	.	.	.	.	.	.	.	.	.	.	.	.	.	16ff\LLyy	.	16ff\LL	.	.	.	.	.	.	.	.	.	.	.	.	.
.	.	.	.	.	.	.	.	.	.	.	.	.	.	.	.	.	16ee\yy	.	16ee\	.	.	.	.	.	.	.	.	.	.	.	.	.
.	.	.	.	.	.	.	.	.	.	.	.	.	.	.	.	.	16dd\yy	.	16dd\	.	.	.	.	.	.	.	.	.	.	.	.	.
.	.	.	.	.	.	.	.	.	.	.	.	.	.	.	.	.	16ee\JJyy	.	16ee\JJ	.	.	.	.	.	.	.	.	.	.	.	.	.
.	.	.	.	.	.	.	.	.	.	.	.	.	.	.	.	.	16ff\LLyy	.	16ff\LL	.	.	.	.	.	.	.	.	.	.	.	.	.
.	.	.	.	.	.	.	.	.	.	.	.	.	.	.	.	.	16ee\yy	.	16ee\	.	.	.	.	.	.	.	.	.	.	.	.	.
.	.	.	.	.	.	.	.	.	.	.	.	.	.	.	.	.	16ff\yy	.	16ff\	.	.	.	.	.	.	.	.	.	.	.	.	.
.	.	.	.	.	.	.	.	.	.	.	.	.	.	.	.	.	16ff#X\JJyy	.	16ff#X\JJ	.	.	.	.	.	.	.	.	.	.	.	.	.
=21	=21	=21	=21	=21	=21	=21	=21	=21	=21	=21	=21	=21	=21	=21	=21	=21	=21	=21	=21	=21	=21	=21	=21	=21	=21	=21	=21	=21	=21	=21	=21	=21
2.ryy	.	2.ryy	.	2.r	.	.	2.r	.	2.r	.	.	2.r	.	.	2.ryy	.	8gg\)	.	8gg\)	.	2.ryy	.	2.ryy	.	2.ryy	.	2.ryy	.	2.ryy	.	2.ryy	.
.	.	.	.	.	.	.	.	.	.	.	.	.	.	.	.	.	[4g/yy	.	[4g/	.	.	.	.	.	.	.	.	.	.	.	.	.
.	.	.	.	.	.	.	.	.	.	.	.	.	.	.	.	.	8g/L]yy	.	8g/L]	.	.	.	.	.	.	.	.	.	.	.	.	.
.	.	.	.	.	.	.	.	.	.	.	.	.	.	.	.	.	8g'/yy	.	8g'/	.	.	.	.	.	.	.	.	.	.	.	.	.
.	.	.	.	.	.	.	.	.	.	.	.	.	.	.	.	.	8g'/Jyy	.	8g'/J	.	.	.	.	.	.	.	.	.	.	.	.	.
=22	=22	=22	=22	=22	=22	=22	=22	=22	=22	=22	=22	=22	=22	=22	=22	=22	=22	=22	=22	=22	=22	=22	=22	=22	=22	=22	=22	=22	=22	=22	=22	=22
2.ryy	.	2.ryy	.	4c\	.	.	4e\	.	4g/	.	.	(8.g/L	Od-	.	2.ryy	.	((8.g/Lyy	.	((8.g/L	.	2.ryy	.	2.ryy	.	2.ryy	.	2.ryy	.	2.ryy	.	2.ryy	.
.	.	.	.	.	.	.	.	.	.	.	.	16cc/Jk)	.	.	.	.	16cc/Jk)yy	.	16cc/Jk)	.	.	.	.	.	.	.	.	.	.	.	.	.
.	.	.	.	8C/	.	.	8e\	.	8g/	.	.	8cc\	-puść	.	.	.	8cc\L)yy	.	8cc\L)	.	.	.	.	.	.	.	.	.	.	.	.	.
.	.	.	.	8c\	.	.	8e\	.	8g/	.	.	8cc\	nam	.	.	.	8cc'\yy	.	8cc'\	.	.	.	.	.	.	.	.	.	.	.	.	.
.	.	.	.	8G\	.	.	8d\	.	8g/	.	.	8b\	na-	.	.	.	8b'\yy	.	8b'\	.	.	.	.	.	.	.	.	.	.	.	.	.
.	.	.	.	8c\	.	.	8e\	.	8g/	.	.	8cc\	-sze	.	.	.	8cc'\Jyy	.	8cc'\J	.	.	.	.	.	.	.	.	.	.	.	.	.
=23	=23	=23	=23	=23	=23	=23	=23	=23	=23	=23	=23	=23	=23	=23	=23	=23	=23	=23	=23	=23	=23	=23	=23	=23	=23	=23	=23	=23	=23	=23	=23	=23
2.ryy	.	2.ryy	.	4G\	.	.	(8.B\L	.	4g/	.	.	(8.dd\L	wi-	.	2.ryy	.	(8.dd\Lyy	.	(8.dd\L	.	2.ryy	.	2.ryy	.	2.ryy	.	2.ryy	.	2.ryy	.	2.ryy	.
.	.	.	.	.	.	.	16c\Jk)	.	.	.	.	16ee\Jk)	.	.	.	.	16ee\Jk)yy	.	16ee\Jk)	.	.	.	.	.	.	.	.	.	.	.	.	.
.	.	.	.	4G\	.	.	4B\	.	4g/	.	.	4dd\	-ny	.	.	.	4dd\yy	.	4dd\	.	.	.	.	.	.	.	.	.	.	.	.	.
.	.	.	.	4G\	.	.	4B\	.	4g/	.	.	4dd\	Gdy	.	.	.	4dd\yy	.	4dd\	.	.	.	.	.	.	.	.	.	.	.	.	.
=24	=24	=24	=24	=24	=24	=24	=24	=24	=24	=24	=24	=24	=24	=24	=24	=24	=24	=24	=24	=24	=24	=24	=24	=24	=24	=24	=24	=24	=24	=24	=24	=24
2.ryy	.	2.ryy	.	4C/	.	.	4c\	.	4g/	.	.	4ee\	sta-	.	2.ryy	.	(16ee\LLyy	.	(16ee\LL	.	2.ryy	.	2.ryy	.	2.ryy	.	2.ryy	.	2.ryy	.	2.ryy	.
.	.	.	.	.	.	.	.	.	.	.	.	.	.	.	.	.	16cc\yy	.	16cc\	.	.	.	.	.	.	.	.	.	.	.	.	.
.	.	.	.	.	.	.	.	.	.	.	.	.	.	.	.	.	16g\yy	.	16g\	.	.	.	.	.	.	.	.	.	.	.	.	.
.	.	.	.	.	.	.	.	.	.	.	.	.	.	.	.	.	16cc\JJyy	.	16cc\JJ	.	.	.	.	.	.	.	.	.	.	.	.	.
.	.	.	.	4c\	.	.	4c\	.	4g/	.	.	4ee\	-niem	.	.	.	8ee\)yy	.	8ee\)	.	.	.	.	.	.	.	.	.	.	.	.	.
.	.	.	.	.	.	.	.	.	.	.	.	.	.	.	.	.	8ee|>\Lyy	.	8ee|>\L	.	.	.	.	.	.	.	.	.	.	.	.	.
.	.	.	.	(8.B\L	.	.	(8.d\L	.	4g/	.	.	(8.ff\L	przed	.	.	.	(8.ff\yy	.	(8.ff\	.	.	.	.	.	.	.	.	.	.	.	.	.
.	.	.	.	16c\Jk)	.	.	16c\Jk)	.	.	.	.	16ee\Jk)	.	.	.	.	16ee\Jk)yy	.	16ee\Jk)	.	.	.	.	.	.	.	.	.	.	.	.	.
=25	=25	=25	=25	=25	=25	=25	=25	=25	=25	=25	=25	=25	=25	=25	=25	=25	=25	=25	=25	=25	=25	=25	=25	=25	=25	=25	=25	=25	=25	=25	=25	=25
2.r	.	2.r	.	4G\	.	.	4c\	.	4g/	.	.	4ee\	To-	.	2.ryy	.	(4ee\yy	.	(4ee\	.	2.ryy	.	2.ryy	.	2.ryy	.	2.ryy	.	2.ryy	.	2.ryy	.
.	.	.	.	8G\	.	.	8B\	.	8g/	.	.	8dd\	-bą	.	.	.	16dd\)yy	.	16dd\)	.	.	.	.	.	.	.	.	.	.	.	.	.
.	.	.	.	.	.	.	.	.	.	.	.	.	.	.	.	.	(16g/LLyy	.	(16g/LL	.	.	.	.	.	.	.	.	.	.	.	.	.
.	.	.	.	8r	.	.	8r	.	8r	.	.	8r	.	.	.	.	16f#X/yy	.	16f#X/	.	.	.	.	.	.	.	.	.	.	.	.	.
.	.	.	.	.	.	.	.	.	.	.	.	.	.	.	.	.	16g/JJyy	.	16g/JJ	.	.	.	.	.	.	.	.	.	.	.	.	.
.	.	.	.	4r	.	.	4r	.	4r	.	.	4r	.	.	.	.	16a-X/LLyy	.	16a-X/LL	.	.	.	.	.	.	.	.	.	.	.	.	.
.	.	.	.	.	.	.	.	.	.	.	.	.	.	.	.	.	16an/yy	.	16an/	.	.	.	.	.	.	.	.	.	.	.	.	.
.	.	.	.	.	.	.	.	.	.	.	.	.	.	.	.	.	16b-X/yy	.	16b-X/	.	.	.	.	.	.	.	.	.	.	.	.	.
.	.	.	.	.	.	.	.	.	.	.	.	.	.	.	.	.	16bn/JJ)yy	.	16bn/JJ)	.	.	.	.	.	.	.	.	.	.	.	.	.
!!LO:PB:g=original
=26	=26	=26	=26	=26	=26	=26	=26	=26	=26	=26	=26	=26	=26	=26	=26	=26	=26	=26	=26	=26	=26	=26	=26	=26	=26	=26	=26	=26	=26	=26	=26	=26
*	*	*	*	*	*	*	*	*	*	*	*	*	*	*	*	*	*	*	*	*	*	*	*	*	*^	*	*^	*	*	*	*	*
!LO:SIC:o=4Ret</	!	!	!LO:HP:b	!	!	!	!	!	!	!	!	!	!	!LO:DY:a	!	!	!	!	!	!	!	!	!	!	!	!	!	!	!	!	!	!	!	!
4cT/	.	4.A\	<	4.A\	.	.	4.e\	.	4.e/	.	.	4.cc\	Bo-	<	4.A\ 4.e	<	4.a/	<	4.cc|>\	<	2.r	.	4.A\	.	4.ee/	4.ee\	.	4.a/	4.a\	.	4.cc\	.	4.ccc|\	.
!LO:SIC:o=8Re/	!	!	!	!	!	!	!	!	!	!	!	!	!	!	!	!	!	!	!	!	!	!	!	!	!	!	!	!	!	!	!	!	!	!
8c/	.	.	.	.	.	.	.	.	.	.	.	.	.	.	.	.	.	.	.	.	.	.	.	.	.	.	.	.	.	.	.	.	.	.
8r	.	(8A\	.	8A\	.	.	8e\	.	8e/	.	.	8cc\	-że	.	[>8A\ [8e	.	[8a/	.	(8cc\	.	.	.	(8A\	.	[8ee/	[8ee\	.	[8a/	[8a\	.	(8cc\	.	(8ccc\	<
!LO:SIC:o=8.Re\L	!	!	!	!	!	!	!	!	!	!	!	!	!	!	!	!	!	!	!	!	!	!	!	!	!	!	!	!	!	!	!	!	!	!
8.G\L	.	8.G\L)	.	8.G\	.	.	8.e\	.	8.a/	.	.	8.cc#X\	w Trój-	.	8.A\L] 8.e]	.	8.a/L]	.	8.cc#X\L)	.	.	.	8.G\L)	.	8.ee/L]	8.ee\L]	.	8.a/L]	8.a\L]	.	8.cc#X\L)	.	8.ccc#X\L)	.
!LO:SIC:o=16Re\JK	!	!	!	!	!	!	!	!	!	!	!	!	!	!	!	!	!	!	!	!	!	!	!	!	!	!	!	!	!	!	!	!	!	!
16G\Jk	.	16G\Jk	[[	16G\	.	.	16e\	.	16a/	.	.	16cc#\	-cy	[[	16A\Jk 16e	[[	16a|</Jk	[[	16cc#|>\Jk	[[	.	.	16G\Jk	.	16ee|>/Jk	16ee\Jk	.	16a/Jk	16a|>\Jk	.	16cc#|\Jk	.	16ccc#|\Jk	[[
=27	=27	=27	=27	=27	=27	=27	=27	=27	=27	=27	=27	=27	=27	=27	=27	=27	=27	=27	=27	=27	=27	=27	=27	=27	=27	=27	=27	=27	=27	=27	=27	=27	=27	=27
*	*	*	*	*	*	*	*	*	*	*	*	*	*	*	*	*	*	*	*	*	*^	*	*	*	*	*	*	*	*	*	*	*	*	*
*	*	*	*	*	*	*	*	*	*	*	*	*	*	*	*	*	*	*	*	*	*	*2\right	*	*	*	*	*	*	*	*	*	*	*	*2\right	*
!	!	!	!LO:DY:b	!	!	!LO:DY:a	!	!LO:DY:a	!	!	!LO:DY:a	!	!	!LO:DY:a	!	!	!	!	!	!	!	!	!LO:DY:a	!	!	!	!	!	!	!	!	!	!	!	!
2.r	.	2F\	f	2F\	.	f	2d\	f	2a/	.	f	2dd\	Je-	f	2A\ 2f	f	(16a/LL	f	(16dd\LL	f	2dd/	2dd\	f	2F\	.	2dd/	2dd\	.	2a/	2a\	f	2dd\	.	2ddd\	f
.	.	.	.	.	.	.	.	.	.	.	.	.	.	.	.	.	16f/	.	16a\	.	.	.	.	.	.	.	.	.	.	.	.	.	.	.	.
.	.	.	.	.	.	.	.	.	.	.	.	.	.	.	.	.	16d/	.	16f\	.	.	.	.	.	.	.	.	.	.	.	.	.	.	.	.
.	.	.	.	.	.	.	.	.	.	.	.	.	.	.	.	.	16f/JJ	.	16a\JJ)	.	.	.	.	.	.	.	.	.	.	.	.	.	.	.	.
.	.	.	.	.	.	.	.	.	.	.	.	.	.	.	.	.	4f/)	.	4dd\	.	.	.	.	.	.	.	.	.	.	.	.	.	.	.	.
.	.	8.D\L	.	8.D\	.	.	8.d\	.	8.a/	.	.	8.ff\	-dy-	.	8.A\L 8.f	.	8.a/L	.	8.ff|>\L	.	8.dd/L	8.dd\L	.	8.D\L	.	8.dd/L	8.dd\L	.	8.a/L	8.a\L	.	8.ff\L	.	8.fff\L	.
.	.	16F\Jk	.	16F\	.	.	16d\	.	16f/	.	.	16dd\	-ny	.	16A\Jk 16f	.	16f/Jk	.	16dd|>\Jk	.	16dd/Jk	16dd\Jk	.	16F\Jk	.	16dd/Jk	16dd\Jk	.	16f/Jk	16f\Jk	.	16dd\Jk	.	16ddd\Jk	.
*	*	*	*	*	*	*	*	*	*	*	*	*	*	*	*	*	*	*	*	*	*v	*v	*	*	*	*v	*v	*	*	*	*	*	*	*	*
*	*	*	*	*	*	*	*	*	*	*	*	*	*	*	*	*	*	*	*	*	*	*	*	*	*	*	*v	*v	*	*	*	*	*
=28	=28	=28	=28	=28	=28	=28	=28	=28	=28	=28	=28	=28	=28	=28	=28	=28	=28	=28	=28	=28	=28	=28	=28	=28	=28	=28	=28	=28	=28	=28	=28	=28
!	!	!	!	!	!	!	!	!	!	!	!	!	!	!LO:DY:a	!	!	!	!	!	!	!	!	!	!	!	!	!	!	!	!	!	!
!	!	!	!LO:DY:b	!	!	!LO:DY:a	!	!LO:DY:a	!	!	!LO:DY:a	!	!	!LO:HP:a	!	!	!	!	!	!	!	!	!	!	!	!	!	!	!	!	!	!
2.r	.	4.G\	p	4.G\	.	p	4.d\	p	4.f/	.	p	4.b\	day	p < [	4.d\	p	4.f/	p	4.b|>\	p	2.r	.	2.r	.	2.r	.	2.r	.	2.r	.	2.r	.
.	.	8G\	.	8G\	.	.	8d\	.	8f/	.	.	8b\	nam	.	[8d\	.	[8f/	.	(8b\	< [	.	.	.	.	.	.	.	.	.	.	.	.
!	!	!	!	!	!	!	!	!	!	!	!	!	!	!LO:DY:a	!	!	!	!	!	!	!	!	!	!	!	!	!	!	!	!	!	!
.	.	8.A-X\L	.	8.A-X\	.	.	8.d\	.	8.f/	.	.	8.cc\	miesz-	>	8.d\L]	.	8.f/L]	.	8.cc\L)	>	.	.	.	.	.	.	.	.	.	.	.	.
.	.	16A-\Jk	.	16A-\	.	.	16d\	.	16f/	.	.	16cc\	-kać	] ]]	16d\|>Jk	.	16f|>/Jk	.	16cc|>\Jk	] ]]	.	.	.	.	.	.	.	.	.	.	.	.
=29	=29	=29	=29	=29	=29	=29	=29	=29	=29	=29	=29	=29	=29	=29	=29	=29	=29	=29	=29	=29	=29	=29	=29	=29	=29	=29	=29	=29	=29	=29	=29	=29
*	*	*	*	*	*	*	*	*	*	*	*	*	*	*	*	*	*	*	*	*	*	*	*	*	*	*	*^	*	*	*	*	*
2.r	.	4G\	.	4G\	.	.	4d\	.	4f/	.	.	4cc\	z_so-	.	4.d\	.	4.f/	.	(4cc\	.	2.r	.	4r	.	4r	.	4r	4ryy	.	2.r	.	4r	.
.	.	8GG/	.	8G\	.	.	8d\	.	8f/	.	.	8b\	-bą	.	.	.	.	.	8b\)	.	.	.	4r	.	4r	.	4r	4ryy	.	.	.	4r	.
.	.	8r	.	8r	.	.	8r	.	8r	.	.	8r	.	.	8r	.	8r	.	8r	.	.	.	.	.	.	.	.	.	.	.	.	.	.
.	.	8.F\L	.	8.F\	.	.	8.d\	.	8.g/	.	.	8.b\	od-	.	8.d\L	.	8.G^/L 8.g	.	8.b|>^<\L	.	.	.	8.F\L	p	8.g/L 8.dd	p	8.b/L	8.g^\L	.	.	.	8.bb|\L	.
.	.	16F\Jk	.	16F\	.	.	16d\	.	16g/	.	.	16b\	-puść	.	16d\Jk	.	16G/Jk 16g	.	16b|>\Jk	.	.	.	16F\Jk	.	16g/Jk 16dd	.	16b/Jk	16g\Jk	.	.	.	16bb|\Jk	.
=30	=30	=30	=30	=30	=30	=30	=30	=30	=30	=30	=30	=30	=30	=30	=30	=30	=30	=30	=30	=30	=30	=30	=30	=30	=30	=30	=30	=30	=30	=30	=30	=30	=30
*	*	*	*	*	*	*	*	*	*	*	*	*	*	*	*	*	*	*	*	*	*	*	*	*	*^	*	*	*	*	*	*	*	*
!LO:SIC:o=4Ret</	!	!	!	!	!	!	!	!	!	!	!	!	!	!	!	!	!	!	!	!	!	!	!	!	!	!	!	!	!	!	!	!	!	!
4cT/	p	2E\	.	2E\	.	.	2c\	.	2g/	.	.	2cc\	nam	.	2c\	.	2G/ 2g	.	16cc|>\LL	.	2.r	.	2E\	.	2ee/	2cc\	.	2cc/	2g\	.	2.r	.	16ccc|\LL	.
.	.	.	.	.	.	.	.	.	.	.	.	.	.	.	.	.	.	.	(16gg\	.	.	.	.	.	.	.	.	.	.	.	.	.	(16ggg\	.
.	.	.	.	.	.	.	.	.	.	.	.	.	.	.	.	.	.	.	16ff#X\	.	.	.	.	.	.	.	.	.	.	.	.	.	16fff#X\	.
.	.	.	.	.	.	.	.	.	.	.	.	.	.	.	.	.	.	.	16gg\JJ	.	.	.	.	.	.	.	.	.	.	.	.	.	16ggg\JJ	.
!LO:SIC:o=8Re/	!	!	!	!	!	!	!	!	!	!	!	!	!	!	!	!	!	!	!	!	!	!	!	!	!	!	!	!	!	!	!	!	!	!
8c/	.	.	.	.	.	.	.	.	.	.	.	.	.	.	.	.	.	.	16ffn\LL	.	.	.	.	.	.	.	.	.	.	.	.	.	16fffn\LL	.
.	.	.	.	.	.	.	.	.	.	.	.	.	.	.	.	.	.	.	16ee\	.	.	.	.	.	.	.	.	.	.	.	.	.	16eee\	.
8r	.	.	.	.	.	.	.	.	.	.	.	.	.	.	.	.	.	.	16dd\	.	.	.	.	.	.	.	.	.	.	.	.	.	16ddd\	.
.	.	.	.	.	.	.	.	.	.	.	.	.	.	.	.	.	.	.	16cc\JJ)	.	.	.	.	.	.	.	.	.	.	.	.	.	16ccc\JJ)	.
4r	.	8.F\L	.	8.F\	.	.	8.d\	.	8.g/	.	.	8.b\	na-	.	8.d\L	.	8.G/L 8.g	.	8.b\L	.	.	.	8.F\L	.	8.g/L 8.dd	4ryy	.	8.b/L	8.g\L	.	.	.	8.bb\L	.
.	.	16F\Jk	.	16F\	.	.	16B\	.	16g/	.	.	16dd\	-sze	.	16d\Jk	.	16G/Jk 16g	.	16dd|>\Jk	.	.	.	16F\Jk	.	16g/Jk 16dd	.	.	16dd/Jk	16g\Jk	.	.	.	16ddd|\Jk	.
!!LO:PB:g=original
=31	=31	=31	=31	=31	=31	=31	=31	=31	=31	=31	=31	=31	=31	=31	=31	=31	=31	=31	=31	=31	=31	=31	=31	=31	=31	=31	=31	=31	=31	=31	=31	=31	=31	=31
2.r	.	4.E\	.	4E\	.	.	4c\	.	4g/	.	.	(8.g/L	wi-	.	4.c\	.	4.G/ 4.g	.	(8.g/L	.	2.r	.	4.E\	.	4.ee/	4.cc\	.	4.cc/	4.g\	.	2.r	.	(8.gg\L	.
.	.	.	.	.	.	.	.	.	.	.	.	32a/LL	.	.	.	.	.	.	32a/LL	.	.	.	.	.	.	.	.	.	.	.	.	.	32aa\LL	.
.	.	.	.	.	.	.	.	.	.	.	.	32b/JJJ)	.	.	.	.	.	.	32b/JJJ)	.	.	.	.	.	.	.	.	.	.	.	.	.	32bb\JJJ	.
.	.	.	.	8E\	.	.	8c\	.	8g/	.	.	8cc\	-ny	.	.	.	.	.	16cc\	.	.	.	.	.	.	.	.	.	.	.	.	.	16ccc\)	.
.	.	.	.	.	.	.	.	.	.	.	.	.	.	.	.	.	.	.	(16cc\LL	<	.	.	.	.	.	.	.	.	.	.	.	.	(16ccc\LL	<
.	.	8r	.	8r	.	.	8r	.	8r	.	.	8r	.	.	8r	.	8r	.	16b\	.	.	.	8r	.	8r	8ryy	.	8r	8ryy	.	.	.	16bb\	.
.	.	.	.	.	.	.	.	.	.	.	.	.	.	.	.	.	.	.	16cc\JJ	.	.	.	.	.	.	.	.	.	.	.	.	.	16ccc\JJ	.
.	.	4r	.	4r	.	.	4r	.	4r	.	.	4r	.	.	4r	.	4r	.	16cc#X\LL	.	.	.	4r	.	4r	4ryy	.	4r	4ryy	.	.	.	16ccc#X\LL	.
.	.	.	.	.	.	.	.	.	.	.	.	.	.	.	.	.	.	.	16dd\	.	.	.	.	.	.	.	.	.	.	.	.	.	16ddd\	.
.	.	.	.	.	.	.	.	.	.	.	.	.	.	.	.	.	.	.	16dd#X\	.	.	.	.	.	.	.	.	.	.	.	.	.	16ddd#X\	.
.	.	.	.	.	.	.	.	.	.	.	.	.	.	.	.	.	.	.	16ee\JJ	[[	.	.	.	.	.	.	.	.	.	.	.	.	16eee\JJ	[[
=32	=32	=32	=32	=32	=32	=32	=32	=32	=32	=32	=32	=32	=32	=32	=32	=32	=32	=32	=32	=32	=32	=32	=32	=32	=32	=32	=32	=32	=32	=32	=32	=32	=32	=32
*	*	*	*	*	*	*	*	*	*	*	*	*	*	*	*	*	*	*	*	*	*^	*	*	*	*	*	*	*	*	*	*	*	*	*
!	!	!	!	!	!	!LO:DY:a	!	!LO:DY:a	!	!	!LO:DY:a	!	!	!LO:DY:a	!	!	!	!	!	!	!	!	!	!	!	!	!	!	!	!	!LO:DY:a	!	!	!	!
2.r	.	4.D|>\	f	2D\	.	f	2d\	f	2a/	.	f	2ff\	I	f	4.d\ 4.a	.	4.a/	f	4.ff\)	f	2a/	2d\	.	(2D\	.	(2ff/	2dd\	f	(2dd/	2a\	f	(2ff\	.	[4.fff\)	f
.	.	8D|>\	.	.	.	.	.	.	.	.	.	.	.	.	8d\ 8a	.	8a/	.	8ff\	.	.	.	.	.	.	.	.	.	.	.	.	.	.	(8fff\]	.
.	.	8.E|>\L	.	8.E\	.	.	8.c#X\	.	8.g/	.	.	8.ee\	miesz-	.	8.e\L 8.a	.	8.g/L	.	8.ee\L	.	8.g/L	8.e\L	.	8.E\L)	.	8.ee/L)	8.cc#X\L	.	8.cc#X/L)	4a\	.	8.ee\L)	.	8.eee\L)	.
.	.	16F|>\Jk	.	16F\	.	.	16d\	.	16f/	.	.	16dd\	-kaj	.	16f\Jk 16a	.	16f/Jk	.	16dd\Jk	.	16f/Jk	16f\Jk	.	16F|>\Jk	.	16dd|>/Jk	16dd\Jk	.	16dd|>/Jk	.	.	16dd|\Jk	.	16ddd|\Jk	.
=33	=33	=33	=33	=33	=33	=33	=33	=33	=33	=33	=33	=33	=33	=33	=33	=33	=33	=33	=33	=33	=33	=33	=33	=33	=33	=33	=33	=33	=33	=33	=33	=33	=33	=33	=33
*	*	*	*	*	*	*	*	*	*	*	*	*	*	*	*	*	*	*	*2\right	*	*	*	*	*	*	*	*	*	*	*	*	*	*	*	*
*	*	*tremolo	*	*	*	*	*	*	*	*	*	*	*	*	*tremolo	*	*tremolo	*	*tremolo	*	*	*	*	*	*	*	*	*	*	*	*	*	*	*	*
!LO:SIC:o=2Rett/	!	!	!	!	!	!	!	!	!	!	!	!	!	!	!	!	!	!	!	!	!	!	!	!	!	!	!	!	!	!	!	!	!	!	!
2cT/	.	8G\L	.	2.G\	.	.	(2cn\	.	(2e/	.	.	(2gg\	z_na-	.	16c\LL 16g	.	16G/LL 16e	.	16gg\LL	.	2g/	2e\	.	2G\	.	2ee/	2ccn\	.	2ee/	2cc\	.	2gg\	.	2ggg\	.
.	.	.	.	.	.	.	.	.	.	.	.	.	.	.	16c\ 16g	.	16G/ 16e	.	16gg\	.	.	.	.	.	.	.	.	.	.	.	.	.	.	.	.
.	.	8G\	.	.	.	.	.	.	.	.	.	.	.	.	16c\ 16g	.	16G/ 16e	.	16gg\	.	.	.	.	.	.	.	.	.	.	.	.	.	.	.	.
.	.	.	.	.	.	.	.	.	.	.	.	.	.	.	16c\ 16g	.	16G/ 16e	.	16gg\	.	.	.	.	.	.	.	.	.	.	.	.	.	.	.	.
.	.	8G\	.	.	.	.	.	.	.	.	.	.	.	.	16c\ 16g	.	16G/ 16e	.	16gg\	.	.	.	.	.	.	.	.	.	.	.	.	.	.	.	.
.	.	.	.	.	.	.	.	.	.	.	.	.	.	.	16c\ 16g	.	16G/ 16e	.	16gg\	.	.	.	.	.	.	.	.	.	.	.	.	.	.	.	.
.	.	8G\J	.	.	.	.	.	.	.	.	.	.	.	.	16c\ 16g	.	16G/ 16e	.	16gg\	.	.	.	.	.	.	.	.	.	.	.	.	.	.	.	.
.	.	.	.	.	.	.	.	.	.	.	.	.	.	.	16c\JJ 16g	.	16G/JJ 16e	.	16gg\JJ	.	.	.	.	.	.	.	.	.	.	.	.	.	.	.	.
!LO:SIC:o=4Re\	!	!	!	!	!	!	!	!	!	!	!	!	!	!	!	!	!	!	!	!	!	!	!	!	!	!	!	!	!	!	!	!	!	!	!
4G\	.	8GG/L	.	.	.	.	4d\)	.	4f/)	.	.	4b\)	.	.	16d\LL	.	16G/LL 16f	.	16b\LL	.	4b/	4f\	.	4GG\ 4G	.	4g/ 4dd	4ryy	.	4ff/	4cc\	.	4bb\	.	4bb\	.
.	.	.	.	.	.	.	.	.	.	.	.	.	.	.	16d\	.	16G/ 16f	.	16b\	.	.	.	.	.	.	.	.	.	.	.	.	.	.	.	.
.	.	8GG/J	.	.	.	.	.	.	.	.	.	.	.	.	16d\	.	16G/ 16f	.	16b\	.	.	.	.	.	.	.	.	.	.	.	.	.	.	.	.
.	.	.	.	.	.	.	.	.	.	.	.	.	.	.	16d\JJ	.	16G/JJ 16f	.	16b\JJ	.	.	.	.	.	.	.	.	.	.	.	.	.	.	.	.
*	*	*	*	*	*	*	*	*	*	*	*	*	*	*	*	*	*	*	*	*	*v	*v	*	*	*	*v	*v	*	*	*	*	*	*	*	*
=34	=34	=34	=34	=34	=34	=34	=34	=34	=34	=34	=34	=34	=34	=34	=34	=34	=34	=34	=34	=34	=34	=34	=34	=34	=34	=34	=34	=34	=34	=34	=34	=34	=34
*	*	*	*	*	*	*	*	*	*	*	*	*	*	*	*	*	*	*	*	*	*	*	*^	*	*	*	*	*	*	*	*	*	*
!LO:SIC:o=4Re/	!	!	!	!	!	!	!	!	!	!	!	!	!	!	!	!	!	!	!	!	!	!	!	!	!	!	!	!	!	!	!	!	!	!
4c/	.	8AA/L	.	4A\	.	.	4c\	.	4e/	.	.	4cc\	-mi	.	16c\LL	.	16A/LL 16e	.	16cc\LL	.	2e/ 2cc	.	2A/	[>4AA\	.	2e/ 2cc	.	2ee/	2cc\	.	2ccc\	.	2ccc\	.
.	.	.	.	.	.	.	.	.	.	.	.	.	.	.	16c\	.	16A/ 16e	.	16cc\	.	.	.	.	.	.	.	.	.	.	.	.	.	.	.
.	.	8AA/J	.	.	.	.	.	.	.	.	.	.	.	.	16c\	.	16A/ 16e	.	16cc\	.	.	.	.	.	.	.	.	.	.	.	.	.	.	.
.	.	.	.	.	.	.	.	.	.	.	.	.	.	.	16c\	.	16A/ 16e	.	16cc\	.	.	.	.	.	.	.	.	.	.	.	.	.	.	.
4r	.	8A\L	.	4r	.	.	4r	.	4r	.	.	4r	.	.	16c\	.	16A/ 16e	.	16cc\	.	.	.	.	4AA\]	.	.	.	.	.	.	.	.	.	.
.	.	.	.	.	.	.	.	.	.	.	.	.	.	.	16c\	.	16A/ 16e	.	16cc\	.	.	.	.	.	.	.	.	.	.	.	.	.	.	.
.	.	8A\J	.	.	.	.	.	.	.	.	.	.	.	.	16c\	.	16A/ 16e	.	16cc\	.	.	.	.	.	.	.	.	.	.	.	.	.	.	.
.	.	.	.	.	.	.	.	.	.	.	.	.	.	.	16c\JJ	.	16A/ 16e	.	16cc\JJ	.	.	.	.	.	.	.	.	.	.	.	.	.	.	.
4r	.	8G\L	.	4G\	.	.	4e\	.	4a/	.	.	4cc#X\	I	.	16c#X\LL	.	16A/ 16e	.	16cc#X\LL	.	4r	.	4G/	4GG\	.	4r	.	4ee/	4cc#X\	.	4aa\	.	4ccc#X\	.
.	.	.	.	.	.	.	.	.	.	.	.	.	.	.	16c#\	.	16A/ 16e	.	16cc#\	.	.	.	.	.	.	.	.	.	.	.	.	.	.	.
.	.	8G\J	.	.	.	.	.	.	.	.	.	.	.	.	16c#\	.	16A/ 16e	.	16cc#\	.	.	.	.	.	.	.	.	.	.	.	.	.	.	.
.	.	.	.	.	.	.	.	.	.	.	.	.	.	.	16c#\JJ	.	16A/JJ 16e	.	16cc#\JJ	.	.	.	.	.	.	.	.	.	.	.	.	.	.	.
*	*	*	*	*	*	*	*	*	*	*	*	*	*	*	*	*	*	*	*	*	*	*	*v	*v	*	*	*	*	*	*	*	*	*	*
=35	=35	=35	=35	=35	=35	=35	=35	=35	=35	=35	=35	=35	=35	=35	=35	=35	=35	=35	=35	=35	=35	=35	=35	=35	=35	=35	=35	=35	=35	=35	=35	=35	=35
!	!	!	!	!	!	!	!LO:TX:t=d	!	!	!	!	!	!	!	!	!	!	!	!	!	!	!	!	!	!	!	!	!	!	!	!	!	!
4r	.	8F\L	.	2F\	.	.	2d\	.	2a/	.	.	2dd\	miesz-	.	16d\LL	.	16A/LL 16f	.	16dd\LL	.	4r	.	2FF/ 2F	.	4r	.	2ff/	2dd\	.	2bb\	.	2ddd\	.
.	.	.	.	.	.	.	.	.	.	.	.	.	.	.	16d\	.	16A/ 16f	.	16dd\	.	.	.	.	.	.	.	.	.	.	.	.	.	.
.	.	8F\	.	.	.	.	.	.	.	.	.	.	.	.	16d\	.	16A/ 16f	.	16dd\	.	.	.	.	.	.	.	.	.	.	.	.	.	.
.	.	.	.	.	.	.	.	.	.	.	.	.	.	.	16d\	.	16A/ 16f	.	16dd\	.	.	.	.	.	.	.	.	.	.	.	.	.	.
4r	.	8F\	.	.	.	.	.	.	.	.	.	.	.	.	16d\	.	16A/ 16f	.	16dd\	.	4r	.	.	.	4r	.	.	.	.	.	.	.	.
.	.	.	.	.	.	.	.	.	.	.	.	.	.	.	16d\	.	16A/ 16f	.	16dd\	.	.	.	.	.	.	.	.	.	.	.	.	.	.
.	.	8F\J	.	.	.	.	.	.	.	.	.	.	.	.	16d\	.	16A/ 16f	.	16dd\	.	.	.	.	.	.	.	.	.	.	.	.	.	.
.	.	.	.	.	.	.	.	.	.	.	.	.	.	.	16d\JJ	.	16A/JJ 16f	.	16dd\JJ	.	.	.	.	.	.	.	.	.	.	.	.	.	.
!LO:SIC:o=4Rett/	!	!	!	!	!	!	!	!	!	!	!	!	!	!	!	!	!	!	!	!	!	!	!	!	!	!	!	!	!	!	!	!	!
4cT/	.	8F#X\L	.	4F#X\	.	.	4e-X\	.	4cc\	.	.	4aa\	-kaj	.	16A/LL	.	16c/LL 16e-X	.	16cc\LL 16gg	.	4c/ 4e-X	.	4FF#X^>/ 4F#X	.	4c^>/ 4cc	.	4ee-X^/	4cc\	.	4aa^\	.	4aaa\	.
.	.	.	.	.	.	.	.	.	.	.	.	.	.	.	16A/	.	16c/ 16e-	.	16cc\ 16gg	.	.	.	.	.	.	.	.	.	.	.	.	.	.
.	.	8F#\J	.	.	.	.	.	.	.	.	.	.	.	.	16A/	.	16c/ 16e-	.	16cc\ 16gg	.	.	.	.	.	.	.	.	.	.	.	.	.	.
.	.	.	.	.	.	.	.	.	.	.	.	.	.	.	16A/JJ	.	16c/JJ 16e-	.	16cc\JJ 16gg	.	.	.	.	.	.	.	.	.	.	.	.	.	.
=36	=36	=36	=36	=36	=36	=36	=36	=36	=36	=36	=36	=36	=36	=36	=36	=36	=36	=36	=36	=36	=36	=36	=36	=36	=36	=36	=36	=36	=36	=36	=36	=36	=36
!LO:SIC:o=4Re\	!	!	!	!	!	!	!	!	!	!	!	!	!	!	!	!	!	!	!	!	!	!	!	!	!	!	!	!	!	!	!	!	!
4G\	.	8G\L	.	(2.G\	.	.	4d\	.	(2cc\	.	.	(2dd\	z_na-	.	16G/LL	.	16d/LL 16cc	.	16dd\LL	.	2G/ 2g	.	2.GG/ 2.G	.	2.G/ 2.g	.	2dd/	2cc\	.	2.gg\	.	2ddd\	.
.	.	.	.	.	.	.	.	.	.	.	.	.	.	.	16G/	.	16d/ 16cc	.	16dd\	.	.	.	.	.	.	.	.	.	.	.	.	.	.
.	.	8G\	.	.	.	.	.	.	.	.	.	.	.	.	16G/	.	16d/ 16cc	.	16dd\	.	.	.	.	.	.	.	.	.	.	.	.	.	.
.	.	.	.	.	.	.	.	.	.	.	.	.	.	.	16G/	.	16d/ 16cc	.	16dd\	.	.	.	.	.	.	.	.	.	.	.	.	.	.
4r	.	8G\	.	.	.	.	[2G/	.	.	.	.	.	.	.	16G/	.	16d/ 16cc	.	16dd\	.	.	.	.	.	.	.	.	.	.	.	.	.	.
.	.	.	.	.	.	.	.	.	.	.	.	.	.	.	16G/	.	16d/ 16cc	.	16dd\	.	.	.	.	.	.	.	.	.	.	.	.	.	.
.	.	8G\	.	.	.	.	.	.	.	.	.	.	.	.	16G/	.	16d/ 16cc	.	16dd\	.	.	.	.	.	.	.	.	.	.	.	.	.	.
.	.	.	.	.	.	.	.	.	.	.	.	.	.	.	16G/	.	16d/JJ 16cc	.	16dd\JJ	.	.	.	.	.	.	.	.	.	.	.	.	.	.
4r	.	8G\	.	.	.	.	.	.	8b\L	.	.	8ee\L	.	.	16G/	.	16e/LL 16b	.	16ee\LL	.	4r	.	.	.	.	.	8ee/L	8b\L	.	.	.	8eee\L	.
.	.	.	.	.	.	.	.	.	.	.	.	.	.	.	16G/	.	16e/ 16b	.	16ee\	.	.	.	.	.	.	.	.	.	.	.	.	.	.
.	.	8G\J	.	.	.	.	.	.	8a\J	.	.	8ff\J)	.	.	16G/	.	16f/ 16a	.	16ff\	.	.	.	.	.	.	.	8ff/J	8a\J	.	.	.	8fff\J	.
.	.	.	.	.	.	.	.	.	.	.	.	.	.	.	16G/JJ	.	16f/JJ 16a	.	16ff\JJ	.	.	.	.	.	.	.	.	.	.	.	.	.	.
*	*	*	*	*	*	*	*	*	*	*	*	*	*	*	*	*	*	*	*	*	*	*	*	*	*	*	*v	*v	*	*	*	*	*
=37	=37	=37	=37	=37	=37	=37	=37	=37	=37	=37	=37	=37	=37	=37	=37	=37	=37	=37	=37	=37	=37	=37	=37	=37	=37	=37	=37	=37	=37	=37	=37	=37
*2\right	*	*	*	*	*	*	*	*	*	*	*	*	*	*	*	*	*	*	*	*	*	*	*	*	*	*	*	*	*	*	*	*
!LO:SIC:o=2.Rett\	!	!	!LO:DY:a	!	!	!	!	!	!	!	!	!	!	!	!	!	!	!	!	!	!	!	!	!	!	!	!	!LO:DY:a	!	!	!	!
2.GT\	ff	8GG/L	ff	2.GG/)	.	.	2G/]	.	2.b\)	.	.	(2.gg\	.	.	16G\LL 16g	.	16d/LL 16b	.	16gg\LL	ff	2.g/ 2.dd	.	2.GG\ 2.B	ff	2.G/ 2.g	ff	2.b\ 2.gg	ff	2.gg\	.	2.ggg\	ff
.	.	.	.	.	.	.	.	.	.	.	.	.	.	.	16G\ 16g	.	16d/ 16b	.	16gg\	.	.	.	.	.	.	.	.	.	.	.	.	.
.	.	8GG/	.	.	.	.	.	.	.	.	.	.	.	.	16G\ 16g	.	16d/ 16b	.	16gg\	.	.	.	.	.	.	.	.	.	.	.	.	.
.	.	.	.	.	.	.	.	.	.	.	.	.	.	.	16G\ 16g	.	16d/ 16b	.	16gg\	.	.	.	.	.	.	.	.	.	.	.	.	.
.	.	8GG/	.	.	.	.	.	.	.	.	.	.	.	.	16G\ 16g	.	16d/ 16b	.	16gg\	.	.	.	.	.	.	.	.	.	.	.	.	.
.	.	.	.	.	.	.	.	.	.	.	.	.	.	.	16G\ 16g	.	16d/ 16b	.	16gg\	.	.	.	.	.	.	.	.	.	.	.	.	.
.	.	8GG/	.	.	.	.	.	.	.	.	.	.	.	.	16G\ 16g	.	16d/ 16b	.	16gg\	.	.	.	.	.	.	.	.	.	.	.	.	.
.	.	.	.	.	.	.	.	.	.	.	.	.	.	.	16G\ 16g	.	16d/ 16b	.	16gg\	.	.	.	.	.	.	.	.	.	.	.	.	.
.	.	8GG/	.	.	.	.	4d\	.	.	.	.	.	.	.	16G\ 16g	.	16d/ 16b	.	16gg\	.	.	.	.	.	.	.	.	.	.	.	.	.
.	.	.	.	.	.	.	.	.	.	.	.	.	.	.	16G\ 16g	.	16d/ 16b	.	16gg\	.	.	.	.	.	.	.	.	.	.	.	.	.
.	.	8GG/J	.	.	.	.	.	.	.	.	.	.	.	.	16G\ 16g	.	16d/ 16b	.	16gg\	.	.	.	.	.	.	.	.	.	.	.	.	.
.	.	.	.	.	.	.	.	.	.	.	.	.	.	.	16G\JJ 16g	.	16d/JJ 16b	.	16gg\JJ	.	.	.	.	.	.	.	.	.	.	.	.	.
*	*	*Xtremolo	*	*	*	*	*	*	*	*	*	*	*	*	*Xtremolo	*	*Xtremolo	*	*Xtremolo	*	*	*	*	*	*	*	*	*	*	*	*	*
!!LO:PB:g=original
=38||	=38||	=38||	=38||	=38||	=38||	=38||	=38||	=38||	=38||	=38||	=38||	=38||	=38||	=38||	=38||	=38||	=38||	=38||	=38||	=38||	=38||	=38||	=38||	=38||	=38||	=38||	=38||	=38||	=38||	=38||	=38||	=38||
*M4/4	*	*M4/4	*	*M4/4	*	*	*M4/4	*	*M4/4	*	*	*M4/4	*	*	*M4/4	*	*M4/4	*	*M4/4	*	*M4/4	*	*M4/4	*	*M4/4	*	*M4/4	*	*M4/4	*	*M4/4	*
*met(c)	*	*met(c)	*	*met(c)	*	*	*met(c)	*	*met(c)	*	*	*met(c)	*	*	*met(c)	*	*met(c)	*	*met(c)	*	*met(c)	*	*met(c)	*	*met(c)	*	*met(c)	*	*met(c)	*	*met(c)	*
*	*	*	*	*	*	*	*	*	*	*	*	*	*	*	*	*	*	*	*	*	*	*	*	*	*	*	*^	*	*	*	*	*
!LO:SIC:o=4Re/	!	!	!	!	!	!	!	!	!	!	!	!	!	!	!	!	!	!	!	!	!	!	!	!	!	!	!	!	!	!	!	!LO:TX:a:t=Adagio.	!
!	!	!	!	!	!	!	!	!	!	!	!	!LO:TX:t=P:problem=brak zakończenia łuku	!	!	!	!	!	!	!	!	!	!	!	!	!	!	!	!	!	!	!	!	!
4c/	.	4C/	.	4C/	mi.	.	4c\	.	4cc\	.	.	4cc\)	-mi	.	4c\ 4g	.	4e/ 4cc	.	4cc\	.	4e/ 4cc	.	4C\ 4c	.	4c/ g	.	4ee/	4cc\	.	4gg\	.	4ccc\	.
4r	.	4r	.	4r	.	.	4r	.	4r	.	.	4r	.	.	4r	.	4r	.	4r	.	4r	.	4r	.	4r	.	4r	4ryy	.	4r	.	4r	.
2r	.	2r	.	4r	.	.	4r	.	4r	.	.	4r	.	.	2r	.	2r	.	2r	.	2r	.	2r	.	2r	.	2r	2ryy	.	2r	.	2r	.
.	.	.	.	(<8C/L	I	.	4c\	.	(4cc\	.	.	4ee\	I	.	.	.	.	.	.	.	.	.	.	.	.	.	.	.	.	.	.	.	.
.	.	.	.	8E/J	.	.	.	.	.	.	.	.	.	.	.	.	.	.	.	.	.	.	.	.	.	.	.	.	.	.	.	.	.
*	*	*	*	*	*	*	*	*	*	*	*	*	*	*	*	*	*	*	*	*	*	*	*	*	*	*	*v	*v	*	*	*	*	*
=39	=39	=39	=39	=39	=39	=39	=39	=39	=39	=39	=39	=39	=39	=39	=39	=39	=39	=39	=39	=39	=39	=39	=39	=39	=39	=39	=39	=39	=39	=39	=39	=39
1ryy	.	1r	.	2.G\)	miesz-	.	2.d\	.	4cc\	.	.	2.dd\	miesz-	.	1r	.	1r	.	1r	.	1r	.	1r	.	1r	.	1r	.	1r	.	1r	.
.	.	.	.	.	.	.	.	.	8b\L	.	.	.	.	.	.	.	.	.	.	.	.	.	.	.	.	.	.	.	.	.	.	.
.	.	.	.	.	.	.	.	.	8a\J	.	.	.	.	.	.	.	.	.	.	.	.	.	.	.	.	.	.	.	.	.	.	.
.	.	.	.	.	.	.	.	.	4b\	.	.	.	.	.	.	.	.	.	.	.	.	.	.	.	.	.	.	.	.	.	.	.
.	.	.	.	(8A\L	-kaj	.	4d\	.	4g/	.	.	4gg\	-kaj	.	.	.	.	.	.	.	.	.	.	.	.	.	.	.	.	.	.	.
.	.	.	.	8B\J	.	.	.	.	.	.	.	.	.	.	.	.	.	.	.	.	.	.	.	.	.	.	.	.	.	.	.	.
=40	=40	=40	=40	=40	=40	=40	=40	=40	=40	=40	=40	=40	=40	=40	=40	=40	=40	=40	=40	=40	=40	=40	=40	=40	=40	=40	=40	=40	=40	=40	=40	=40
*	*	*	*	*	*	*	*	*	*	*	*	*	*	*	*	*	*	*	*	*	*	*	*	*	*^	*	*^	*	*	*	*	*
1ryy	.	1r	.	2c\)	z_na-	.	2c\	.	2g/)	.	.	2ee\	z_na-	.	1r	.	1r	.	1r	.	1r	.	2r	.	2r	2ryy	.	2r	2ryy	.	2r	.	2r	.
.	.	.	.	4C/	-mi.	.	4c\	.	4g/	.	.	4ee\	-mi.	.	.	.	.	.	.	.	.	.	4r	.	4r	4ryy	.	4r	4ryy	.	4r	.	4r	.
.	.	.	.	4r	.	.	4r	.	4r	.	.	4r	.	.	.	.	.	.	.	.	.	.	(8C\L	.	4ee/	4cc\	.	4ee/	4cc\	.	(4ccc\	.	(4eee\	.
.	.	.	.	.	.	.	.	.	.	.	.	.	.	.	.	.	.	.	.	.	.	.	8E\J	.	.	.	.	.	.	.	.	.	.	.
=41	=41	=41	=41	=41	=41	=41	=41	=41	=41	=41	=41	=41	=41	=41	=41	=41	=41	=41	=41	=41	=41	=41	=41	=41	=41	=41	=41	=41	=41	=41	=41	=41	=41	=41
1ryy	.	1r	.	1r	.	.	1r	.	1r	.	.	1r	.	.	1r	.	1r	.	1r	.	1r	.	2.G\)	.	1dd	1g	.	(2.dd/	4cc\	.	4ccc\	.	2.ddd\	.
.	.	.	.	.	.	.	.	.	.	.	.	.	.	.	.	.	.	.	.	.	.	.	.	.	.	.	.	.	8b\L	.	8bb\L	.	.	.
.	.	.	.	.	.	.	.	.	.	.	.	.	.	.	.	.	.	.	.	.	.	.	.	.	.	.	.	.	8a\J	.	8aa\J	.	.	.
.	.	.	.	.	.	.	.	.	.	.	.	.	.	.	.	.	.	.	.	.	.	.	.	.	.	.	.	.	2b\	.	2bb\)	.	.	.
.	.	.	.	.	.	.	.	.	.	.	.	.	.	.	.	.	.	.	.	.	.	.	4GG/ 4G	.	.	.	.	4gg/	.	.	.	.	4ggg\	.
=42	=42	=42	=42	=42	=42	=42	=42	=42	=42	=42	=42	=42	=42	=42	=42	=42	=42	=42	=42	=42	=42	=42	=42	=42	=42	=42	=42	=42	=42	=42	=42	=42	=42	=42
*	*	*	*	*	*	*	*	*	*	*	*	*	*	*	*	*	*	*	*	*	*	*	*^	*	*	*	*	*	*	*	*	*	*	*
1ryy	.	2r	.	2r	.	.	2r	.	2r	.	.	2r	.	.	2r	.	2r	.	2r	.	1r	.	2.G/	2.C\	.	2.ee/	2.cc\	.	2.ee/)	2.cc\	.	2.ccc\	.	2.eee\)	.
!	!	!	!	!	!	!	!	!	!	!	!	!	!	!	!	!	!	!LO:DY:a	!	!	!	!	!	!	!	!	!	!	!	!	!	!	!	!	!
.	.	4r	.	4r	.	.	4r	.	4r	.	.	4r	.	.	4r	.	4r	p	4r	.	.	.	.	.	.	.	.	.	.	.	.	.	.	.	.
.	.	4F\	.	4F\	I	.	4d\	.	4a/	.	.	4dd\	I	.	(4a\	.	(4d/ [4cc	.	(4dd\	.	.	.	4A/	4F\	.	4ff/	4dd\	.	4r	4ryy	.	4r	.	4r	.
*	*	*	*	*	*	*	*	*	*	*	*	*	*	*	*	*	*	*	*	*	*	*	*v	*v	*	*	*	*	*v	*v	*	*	*	*	*
=43	=43	=43	=43	=43	=43	=43	=43	=43	=43	=43	=43	=43	=43	=43	=43	=43	=43	=43	=43	=43	=43	=43	=43	=43	=43	=43	=43	=43	=43	=43	=43	=43	=43
1ryy	.	4G\	.	8G\	miesz-	.	8e\	.	8g/	.	.	8cc\	miesz-	.	8g\)	.	8e/) 8cc]	.	8cc/L	.	1r	.	2G\	.	2ee/	2cc\	.	1r	.	1r	.	1r	.
.	.	.	.	8G\	-kaj	.	8e\	.	8g/	.	.	8g/	-kaj	.	8r	.	8r	.	8g/J	.	.	.	.	.	.	.	.	.	.	.	.	.	.
.	.	4r	.	(2G\	z_na	.	(4c\	.	(4g/	.	.	((2ee\	z_na-	.	4g\	.	4e/ 4cc	.	2ee\)	.	.	.	.	.	.	.	.	.	.	.	.	.	.
.	.	4GG/	.	.	.	.	2B\	.	2f/)	.	.	.	.	.	4r	.	4r	.	.	.	.	.	2GG/ 2G	.	2ff/	2b\	.	.	.	.	.	.	.
.	.	4r	.	4GG/)	.	.	.	.	.	.	.	4dd\	.	.	4G/ 4d	.	4f/ 4b	.	4dd\	.	.	.	.	.	.	.	.	.	.	.	.	.	.
*	*	*	*	*	*	*	*	*	*	*	*	*	*	*	*	*	*	*	*	*	*	*	*	*	*v	*v	*	*	*	*	*	*	*
!!LO:PB:g=original
=44||	=44||	=44||	=44||	=44||	=44||	=44||	=44||	=44||	=44||	=44||	=44||	=44||	=44||	=44||	=44||	=44||	=44||	=44||	=44||	=44||	=44||	=44||	=44||	=44||	=44||	=44||	=44||	=44||	=44||	=44||	=44||	=44||
*M3/4	*	*M3/4	*	*M3/4	*	*	*M3/4	*	*M3/4	*	*	*M3/4	*	*	*M3/4	*	*M3/4	*	*M3/4	*	*M3/4	*	*M3/4	*	*M3/4	*	*M3/4	*	*M3/4	*	*M3/4	*
*	*	*	*	*	*	*	*	*	*	*	*	*	*	*	*	*	*	*	*	*	*	*	*	*	*^	*	*^	*	*	*	*	*
!LO:SIC:o=4Re/	!	!	!	!	!	!	!	!	!	!	!	!	!	!	!	!	!	!	!	!	!	!	!	!	!	!	!	!	!	!	!	!	!	!
!	!	!	!	!	!	!	!	!	!	!	!	!LO:TX:t=P:problem=brak zakończenia łuku	!	!	!	!	!	!	!	!	!	!	!	!	!	!	!	!	!	!	!	!	!	!
4c/	.	4C/	.	4C/	.	.	4c\)	.	4e/	.	.	4cc\))	-mi.	.	4G/ 4e	.	8e/L 8cc	.	4cc\	.	2.r	.	4C/	.	4ee/	8cc\L	.	4cc/	4r	.	4r	.	2.r	.
.	.	.	.	.	.	.	.	.	.	.	.	.	.	.	.	.	8c/	p	.	.	.	.	.	.	.	8cc\	.	.	.	.	.	.	.	.
!	!	!	!	!	!	!	!	!	!	!	!	!	!	!LO:DY:b	!	!	!	!	!	!	!	!	!	!	!	!	!	!	!	!	!	!	!	!
4r	.	4r	.	4r	.	.	4r	.	4r	.	.	4r	.	p	4r	p	8c/	.	4r	.	.	.	4r	.	4r	8cc\	p	4r	4r	.	4r	.	.	.
.	.	.	.	.	.	.	.	.	.	.	.	.	.	.	.	.	8c/J	.	.	.	.	.	.	.	.	8cc\J	.	.	.	.	.	.	.	.
!	!	!	!LO:DY:b	!	!	!LO:DY:b	!	!	!	!	!	!	!	!	!	!	!	!	!	!	!	!	!	!	!	!	!	!	!	!	!	!	!	!
4r	.	(4B-X\	p	8B-X\	.	p	8c\	p	8g/	.	.	8ee\	Od-	.	(4B-X/	.	8g/L	.	4ee\	p	.	.	(4B-X\	p	4r	[>4cc\	.	4cc/	[>4g\	.	4ee/	p	.	.
.	.	.	.	8B-\	.	.	8c\	.	8g/	.	.	8ee\	-puść	.	.	.	8c/J	.	.	.	.	.	.	.	.	.	.	.	.	.	.	.	.	.
=45	=45	=45	=45	=45	=45	=45	=45	=45	=45	=45	=45	=45	=45	=45	=45	=45	=45	=45	=45	=45	=45	=45	=45	=45	=45	=45	=45	=45	=45	=45	=45	=45	=45	=45
2.r	.	2A\)	.	2A\	.	.	2c\	.	4g/	.	.	(4gg\	nam	.	2A/)	.	8g/L	.	(4gg\	.	2.r	.	2A\)	.	2.r	8cc\L]	.	2cc/	4g\]	.	(>4gg/	.	2.r	.
.	.	.	.	.	.	.	.	.	.	.	.	.	.	.	.	.	8c/	.	.	.	.	.	.	.	.	8cc\	.	.	.	.	.	.	.	.
.	.	.	.	.	.	.	.	.	4f/	.	.	4ff\	.	.	.	.	8f/	.	4ff\)	.	.	.	.	.	.	8cc\	.	.	4f\	.	4ff/)	.	.	.
.	.	.	.	.	.	.	.	.	.	.	.	.	.	.	.	.	8c/	.	.	.	.	.	.	.	.	8cc\J	.	.	.	.	.	.	.	.
.	.	4B-X\	.	8B-X\	.	.	8c\	.	8g/	.	.	8ee\)	na-	.	(4B-X/	.	8g/	.	4ee|>\	.	.	.	(4B-X\	.	.	[>4cc\	.	4cc/	[>4g\	.	4ee/	.	.	.
.	.	.	.	8B-\	.	.	8c\	.	8g/	.	.	8ee\	-sze	.	.	.	8c/J	.	.	.	.	.	.	.	.	.	.	.	.	.	.	.	.	.
=46	=46	=46	=46	=46	=46	=46	=46	=46	=46	=46	=46	=46	=46	=46	=46	=46	=46	=46	=46	=46	=46	=46	=46	=46	=46	=46	=46	=46	=46	=46	=46	=46	=46	=46
*	*	*	*	*	*	*	*	*	*	*	*	*	*	*	*	*	*	*	*	*	*	*	*^	*	*	*	*	*	*	*	*	*	*	*
2.r	.	2A\	.	4A\	.	.	4c\	.	4g/	.	.	4gg\	wi-	.	2A/)	.	8g/L	.	(4gg\	.	2.r	.	2A\)	2ryy	.	4r	8cc\L]	.	2cc/	4g\]	.	(>4gg/	.	2.r	.
.	.	.	.	.	.	.	.	.	.	.	.	.	.	.	.	.	8c/	.	.	.	.	.	.	.	.	.	8cc\	.	.	.	.	.	.	.	.
.	.	.	.	4A\	.	.	4c\	.	4f/	.	.	4ff\	-ny	.	.	.	8f/	.	4ff\)	.	.	.	.	.	.	4r	8cc\	.	.	4f\	.	4ff/)	.	.	.
.	.	.	.	.	.	.	.	.	.	.	.	.	.	.	.	.	8c/J	.	.	.	.	.	.	.	.	.	8cc\J	.	.	.	.	.	.	.	.
.	.	4F\	.	4F\	.	.	4d\	.	4a/	.	.	4dd\	I	.	4f\	.	4d/ 4cc	.	4dd|>\	.	.	.	4A/	4F\	.	4dd/	4cc\	.	4cc/	4a\	.	4dd/	.	.	.
*	*	*	*	*	*	*	*	*	*	*	*	*	*	*	*	*	*	*	*	*	*	*	*v	*v	*	*	*	*	*	*	*	*	*	*	*
=47	=47	=47	=47	=47	=47	=47	=47	=47	=47	=47	=47	=47	=47	=47	=47	=47	=47	=47	=47	=47	=47	=47	=47	=47	=47	=47	=47	=47	=47	=47	=47	=47	=47	=47
*	*	*	*	*	*	*	*	*	*	*	*	*	*	*	*	*	*^	*	*	*	*	*	*	*	*	*^	*	*	*	*	*	*	*	*
*	*	*tremolo	*	*	*	*	*	*	*	*	*	*	*	*	*tremolo	*	*tremolo	*tremolo	*	*tremolo	*	*	*	*	*	*	*	*	*	*	*	*	*	*	*	*
2.r	.	8G\L	.	2G\	.	.	2c\	.	2g/	.	.	(4ee\	miesz-	.	8g\L	.	8cc/L	8e\L	.	8ee\L	.	2.r	.	2G\	.	4ee/	2cc\	2.ryy	.	2cc/	2g\	.	4ee/	.	2.r	.
.	.	8G\	.	.	.	.	.	.	.	.	.	.	.	.	8g\	.	8cc/	8e\J	.	8ee\J	.	.	.	.	.	.	.	.	.	.	.	.	.	.	.	.
.	.	8G\	.	.	.	.	.	.	.	.	.	4dd\)	.	.	8g\	.	8cc/	8d\L	.	8dd\L	.	.	.	.	.	4dd/	.	.	.	.	.	.	4dd/	.	.	.
.	.	8G\J	.	.	.	.	.	.	.	.	.	.	.	.	8g\	.	8cc/J	8d\J	.	8dd\J	.	.	.	.	.	.	.	.	.	.	.	.	.	.	.	.
*	*	*Xtremolo	*	*	*	*	*	*	*	*	*	*	*	*	*	*	*	*	*	*	*	*	*	*	*	*	*	*	*	*	*	*	*	*	*	*
!	!	!LO:TX:a:t=P:mixedbeam:problem	!	!	!	!	!	!	!	!	!	!	!	!	!	!	!	!	!	!	!	!	!	!	!	!	!	!	!	!	!	!	!	!	!	!
.	.	8GG/L	.	4G\	.	.	4d\	.	4b\	.	.	4gg\	-kaj	.	8g\	.	8d/L 8b	4ryy	.	8gg\L	.	.	.	4GG\ 4d	.	4gg/	4b\	.	.	4b/	4f\	.	4gg/	.	.	.
.	.	8G\J	.	.	.	.	.	.	.	.	.	.	.	.	8g\J	.	8d/J 8b	.	.	8gg\J	.	.	.	.	.	.	.	.	.	.	.	.	.	.	.	.
*	*	*	*	*	*	*	*	*	*	*	*	*	*	*	*Xtremolo	*	*Xtremolo	*Xtremolo	*	*Xtremolo	*	*	*	*	*	*	*	*	*	*	*	*	*	*	*	*
*	*	*	*	*	*	*	*	*	*	*	*	*	*	*	*	*	*v	*v	*	*	*	*	*	*	*	*	*v	*v	*	*	*	*	*	*	*	*
=48	=48	=48	=48	=48	=48	=48	=48	=48	=48	=48	=48	=48	=48	=48	=48	=48	=48	=48	=48	=48	=48	=48	=48	=48	=48	=48	=48	=48	=48	=48	=48	=48	=48	=48
!	!	!	!	!	!	!LO:DY:a	!	!	!	!	!	!	!	!	!	!	!	!	!	!	!	!	!	!	!	!	!	!	!	!	!	!	!	!
!	!	!	!	!	!	!	!	!	!	!	!LO:HP:b	!	!	!	!	!	!	!	!	!	!	!	!	!	!	!	!	!	!	!	!	!	!	!
4r	.	(4G#X^<\	.	4G#X\	.	>	4d\	.	4b\	.	>	4ff\	z_na-	.	(4g#X\	.	(4b\	.	4ff\	.	4r	.	4GG#X\ 4d	.	4ff/	4b\	.	(4b/	4f\	.	4ff/	.	4r	.
4r	.	4A\)	.	4A\	.	]	4c\	.	4cc\	.	]	4ee\	-mi	.	4a\)	.	4cc\)	.	4ee\	.	4r	.	4AA\ 4c	.	4ee/	4cc\	.	4cc/)	4e\	.	4ee/	.	4r	.
*	*	*tremolo	*	*	*	*	*	*	*	*	*	*	*	*	*tremolo	*	*tremolo	*	*tremolo	*	*	*	*	*	*	*	*	*	*	*	*	*	*	*
!LO:SIC:o=4Re/	!	!	!	!	!	!	!	!	!	!	!	!	!	!	!	!	!	!	!	!	!	!	!	!	!	!	!	!	!	!	!	!	!	!
!	!	!	!LO:DY:b	!	!	!	!	!	!	!	!	!	!	!LO:DY:b	!	!	!	!	!	!	!	!	!	!	!	!	!	!	!	!	!	!	!	!
4c/	f	8F#X\L	f	4F#X\	.	.	4e-X\	.	4cc\	.	.	4aa\	I	f	8f#X\L	f	8e-X/L 8cc	.	8aa\L	.	4f#X/	.	4F#X\	f	4ee-X/	4cc\	.	4cc/	4e-X\	.	4aa/	.	4aaa^<\	f
.	.	8F#\J	.	.	.	.	.	.	.	.	.	.	.	.	8f#\J	.	8e-/J 8cc	.	8aa\J	.	.	.	.	.	.	.	.	.	.	.	.	.	.	.
*	*	*	*	*	*	*	*	*	*	*	*	*	*	*	*	*	*	*	*	*	*	*	*	*	*	*	*	*v	*v	*	*	*	*	*
=49	=49	=49	=49	=49	=49	=49	=49	=49	=49	=49	=49	=49	=49	=49	=49	=49	=49	=49	=49	=49	=49	=49	=49	=49	=49	=49	=49	=49	=49	=49	=49	=49	=49
*tremolo	*	*	*	*	*	*	*	*	*2\right	*	*	*	*	*	*	*	*	*	*	*	*	*	*	*	*	*	*	*	*	*	*	*	*
!LO:SIC:o=16Re/LL	!	!	!	!	!	!	!	!	!	!	!	!	!	!	!	!	!	!	!	!	!	!	!	!	!	!	!	!	!	!	!	!	!
16c/LL	.	8G\L	.	2Gn\	.	.	(2en\	.	2cc\	.	.	2gg\	miesz-	.	8g\L	.	8en/L 8cc	.	8gg\L	.	2g/	.	2G\	.	2een/	2cc\	.	2en/ 2cc	.	2gg\	.	2ggg\	.
!LO:SIC:o=16Re/	!	!	!	!	!	!	!	!	!	!	!	!	!	!	!	!	!	!	!	!	!	!	!	!	!	!	!	!	!	!	!	!	!
16c/	.	.	.	.	.	.	.	.	.	.	.	.	.	.	.	.	.	.	.	.	.	.	.	.	.	.	.	.	.	.	.	.	.
!LO:SIC:o=16Re/	!	!	!	!	!	!	!	!	!	!	!	!	!	!	!	!	!	!	!	!	!	!	!	!	!	!	!	!	!	!	!	!	!
16c/	.	8G\	.	.	.	.	.	.	.	.	.	.	.	.	8g\	.	8e/ 8cc	.	8gg\	.	.	.	.	.	.	.	.	.	.	.	.	.	.
!LO:SIC:o=16Re/JJ	!	!	!	!	!	!	!	!	!	!	!	!	!	!	!	!	!	!	!	!	!	!	!	!	!	!	!	!	!	!	!	!	!
16c/JJ	.	.	.	.	.	.	.	.	.	.	.	.	.	.	.	.	.	.	.	.	.	.	.	.	.	.	.	.	.	.	.	.	.
*Xtremolo	*	*	*	*	*	*	*	*	*	*	*	*	*	*	*	*	*	*	*	*	*	*	*	*	*	*	*	*	*	*	*	*	*
!LO:SIC:o=4Re/	!	!	!	!	!	!	!	!	!	!	!	!	!	!	!	!	!	!	!	!	!	!	!	!	!	!	!	!	!	!	!	!	!
4c/	.	8G\	.	.	.	.	.	.	.	.	.	.	.	.	8g\	.	8e/ 8cc	.	8gg\	.	.	.	.	.	.	.	.	.	.	.	.	.	.
.	.	8G\J	.	.	.	.	.	.	.	.	.	.	.	.	8g\J	.	8e/J 8cc	.	8gg\J	.	.	.	.	.	.	.	.	.	.	.	.	.	.
*	*	*Xtremolo	*	*	*	*	*	*	*	*	*	*	*	*	*Xtremolo	*	*Xtremolo	*	*Xtremolo	*	*	*	*	*	*	*	*	*	*	*	*	*	*
4r	.	(8E/L	.	(8e\L	.	.	8e\L	.	(8ee\L	.	.	(8ee\L	-kaj	.	(8e\L	.	(8ee\L	.	(8ee\L	.	8g/L	.	(8E\L 8e	.	4r	4ryy	.	(8ee\L	.	(8ee\L	.	(8eee\L	.
.	.	8C/J)	.	8c\J)	.	.	8c\J)	.	8cc\J)	.	.	8cc\J)	.	.	8c\J)	.	8cc\J	.	8cc\J)	.	8e/J	.	8C\J) 8c	.	.	.	.	8cc\J)	.	8cc\J)	.	8ccc\J)	.
*	*	*	*	*	*	*	*	*	*	*	*	*	*	*	*	*	*	*	*	*	*	*	*	*	*v	*v	*	*	*	*	*	*	*
=50	=50	=50	=50	=50	=50	=50	=50	=50	=50	=50	=50	=50	=50	=50	=50	=50	=50	=50	=50	=50	=50	=50	=50	=50	=50	=50	=50	=50	=50	=50	=50	=50
*	*	*	*	*	*	*	*	*	*	*	*	*	*	*	*	*	*	*	*	*	*	*	*^	*	*	*	*	*	*	*	*	*
!LO:SIC:o=4Re\	!	!	!	!	!	!	!	!	!	!	!	!	!	!	!	!	!	!	!	!	!	!	!	!	!	!	!	!	!	!	!	!	!
4G\	.	4GG/	.	2G\	.	.	2G/	.	(2g/	.	.	(2g/	z na-	.	4g\	.	4g/)	.	4g/	.	4B/	.	4GG/ 4G	2ryy	.	4r	.	4g/	.	4g/	.	4gg\	.
4r	.	4r	.	.	.	.	.	.	.	.	.	.	.	.	4r	.	4r	.	4r	.	4r	.	4r	.	.	4r	.	4r	.	4r	.	4r	.
!LO:SIC:o=4Re\	!	!	!	!	!	!	!	!	!	!	!	!	!	!	!	!	!	!	!	!	!	!	!	!	!	!	!	!	!	!	!	!	!
4G\	.	4G\	.	4GG/	.	.	4d\	.	4f/)	.	.	4b/)	.	.	4G/ 4d	.	4g/ 4ff	.	4dd\ 4bb	.	4B/ 4f	.	4B/	4GG\	.	4g/ 4dd	.	4b\ 4gg	.	4ff\	.	4bb\	.
=51	=51	=51	=51	=51	=51	=51	=51	=51	=51	=51	=51	=51	=51	=51	=51	=51	=51	=51	=51	=51	=51	=51	=51	=51	=51	=51	=51	=51	=51	=51	=51	=51	=51
*	*	*	*	*	*	*	*	*	*	*	*	*	*	*	*	*	*	*	*	*	*	*	*	*	*	*^	*	*	*	*	*	*	*
!LO:SIC:o=4Re/	!	!	!	!	!	!	!	!	!	!	!	!	!	!	!	!	!	!	!	!	!	!	!	!	!	!	!	!	!	!	!	!	!	!
4c/	.	4C/	.	4C/	.	.	4c\	.	4e/	.	.	4cc\	-mi.	.	4c/	.	4g/ 4ee	.	4ee\ 4ccc	.	4e/ 4g	.	4C/ 4c	2.r	.	4ee/	4cc\	.	4cc\ 4gg	.	4ee\	.	4ccc\	.
4r	.	4r	.	2r	.	.	2r	.	2r	.	.	4r	.	.	2r	.	2r	.	2r	.	2r	.	2r	.	.	4r	4ryy	.	4r	.	4r	.	4r	.
4r	.	4r	.	.	.	.	.	.	.	.	.	4r	.	.	.	.	.	.	.	.	.	.	.	.	.	4r	4ryy	.	4r	.	4r	.	4r	.
*	*	*	*	*	*	*	*	*	*	*	*	*	*	*	*	*	*	*	*	*	*	*	*v	*v	*	*	*	*	*	*	*	*	*	*
*	*	*	*	*	*	*	*	*	*	*	*	*	*	*	*	*	*	*	*	*	*	*	*	*	*v	*v	*	*	*	*	*	*	*
!!LO:PB:g=original
==	==	==	==	==	==	==	==	==	==	==	==	==	==	==	==	==	==	==	==	==	==	==	==	==	==	==	==	==	==	==	==	==
*-	*-	*-	*-	*-	*-	*-	*-	*-	*-	*-	*-	*-	*-	*-	*-	*-	*-	*-	*-	*-	*-	*-	*-	*-	*-	*-	*-	*-	*-	*-	*-	*-
!!!system-decoration: [(s1,s2,s3)][(s4,s5,s6)][(s7,s8,s9)][(s10,s11,s12,s13)][(s14,s15)]
!!!RDF**kern: < = below
!!!RDF**kern: > = above
!!!RDF**kern: | = vertical stroke
!!!ENC: Marta Chmielewska
!!!END: 2021-04-28
!!!ENC: Berenika Jozajtis
!!!END: 2021-04-10
